!!!!SEGMENT: pl-wtm--r-1141-1--004_dobrzynski-ignacy-feliks--quartetto-op-8-finale.krn
!!!cenid: 18xx:1747
!!!COM: Dobrzyński, Ignacy Feliks
!!!COM-rismID: pe30020642
!!!CDT: 1807/02/15-1867/10/09
!!!CNT: Polish
!!!OPR: Quartetto op. 8
!!!OTL: Finale
!!!OMV: 004
!!!PDT: 1829
!!!AGN: Secular; String quartet
!!!SMS-siglum: PL-Wtm
!!!SMS-shelfmark: R 1141/1
!!!SMS-shelfwork: 001-004 M
!!!SMS-variant:
!!!SMS-altvar:
!!!NIFC-rismSourceID: 1001056491
!!!NIFC-rismChildID: 1001056491
!!!NIFC-islandoraID:
!!!URL-pdf-islandora:
!!!URL-scan:
!!!ONB-nifc: UWAGA: części Kwartetu: 1. Allegro, 2. Andante con variazioni, 3. Minuetto alla masovienne, 4. Finale
!!!AIN: 1 alto 3 cello
!!!key: D
**kern	**dynam	**kern	**dynam	**kern	**dynam	**kern	**dynam
*part4	*part4	*part3	*part3	*part2	*part2	*part1	*part1
*staff4	*	*staff3	*	*staff2	*	*staff1	*
*Icello	*	*Ialto	*	*Icello	*	*Icello	*
*I"Violoncelle	*	*I"Alto	*	*I"Violono [II]	*	*I"Violono [I]	*
*I'vlc	*	*I'vla	*	*I'vl 2	*	*I'vl 2	*
*Icello	*	*Iviola	*	*Ivioln	*	*Ivioln	*
*ICstr	*	*ICstr	*	*ICstr	*	*ICstr	*
*mI"Violoncello	*	*mI"Viola	*	*mI"Violino II	*	*mI"Violino I	*
*clefF4	*	*clefC3	*	*clefG2	*	*clefG2	*
*k[b-]	*	*k[b-]	*	*k[b-]	*	*k[b-]	*
*D:	*	*D:	*	*D:	*	*D:	*
*M2/2	*	*M2/2	*	*M2/2	*	*M2/2	*
*met(c|)	*	*met(c|)	*	*met(c|)	*	*met(c|)	*
*mmet(c|)	*	*mmet(c|)	*	*mmet(c|)	*	*mmet(c|)	*
*>[A,A1,A,A2,B,C,D]	*	*>[A,A1,A,A2,B,C,D]	*	*>[A,A1,A,A2,B,C,D]	*	*>[A,A1,A,A2,B,C,D]	*
=1	=1	=1	=1	=1	=1	=1	=1
*>A	*	*>A	*	*>A	*	*>A	*
!!!OMD:
!!!OMD-mod: Vivace
!	!LO:MO:null:mod=!LO&colon;DY&colon;ed=brack	!	!	!	!	!	!
!	!	!	!	!	!	!LO:TX:a:Bi:t=Vivace:problem=dotyczy każdego głosu:mod=	!
!	!LO:MO:null:mod=pp	!LO:TX:a:Bi:t=Col 1mo:mod=	!	!LO:TX:a:Bi:t=Uniſono Col 1mo:mod=	!	!	!
(>2F\	.	(>2f\yy	pp	(>2f/yy	pp	(>2f/	pp
4E\	.	4e\yy	.	4e/yy	.	4e/	.
4D\	.	4d\yy	.	4d/yy	.	4d/	.
=2	=2	=2	=2	=2	=2	=2	=2
!LO:SIC:s=2E)	!	!	!	!	!	!LO:SIC:s=2e)	!
2E\	.	2e\)yy	.	2e/)yy	.	2e/	.
!LO:SIC:s=2r	!	!	!	!	!	!LO:SIC:s=2r	!
2r)	.	2ryy	.	2ryy	.	2r)	.
=3	=3	=3	=3	=3	=3	=3	=3
(<2D/	.	(>2d\yy	.	(>2d/yy	.	(>2d/	.
4C/	.	4c\yy	.	4c/yy	.	4c/	.
4BB-/	.	4B-/yy	.	4B-/yy	.	4B-/	.
=4	=4	=4	=4	=4	=4	=4	=4
!	!	!	!	!	!	!LO:SIC:s=2c)	!
2C/)	.	2c\)yy	.	2c/)yy	.	2c/	.
!	!	!	!	!	!	!LO:SIC:s=2r	!
2r	.	2ryy	.	2ryy	.	2r)	.
=5	=5	=5	=5	=5	=5	=5	=5
!	!	!	!LO:DY:b:rj	!	!	!	!
1r	.	(<2B-/	f	1ryy	.	1r	.
.	.	4A/)	.	.	.	.	.
.	.	4G'</	.	.	.	.	.
=6	=6	=6	=6	=6	=6	=6	=6
1r	.	4A'</	.	1ryy	.	1r	.
.	.	4G'</	.	.	.	.	.
.	.	4F'</	.	.	.	.	.
.	.	4E'</	.	.	.	.	.
=7	=7	=7	=7	=7	=7	=7	=7
!	!LO:MO:null:mod=!LO&colon;DY&colon;ed=brack	!LO:TX:b:Bi:t=ritar&colon;:mod=	!	!LO:TX:b:Bi:t=ritar&colon;:mod=	!	!	!LO:MO:null:mod=!LO&colon;DY&colon;ed=brack
!	!	!	!	!	!	!LO:TX:b:Bi:t=ritar&colon;:dur=4q:ext=ud:problem=text with extention lines:mod=	!
!	!LO:MO:null:mod=f	!	!	!	!	!	!LO:MO:null:mod=f
!!LO:TX:t=ritard.
(<2D/	.	1D/	.	4r	.	(>2f/	.
!	!	!	!	!	!LO:MO:null:mod=!LO&colon;DY&colon;ed=brack	!	!
!	!	!	!	!	!LO:MO:null:mod=f	!	!
.	.	.	.	2.d/	.	.	.
4C/	.	.	.	.	.	4g/	.
4BB-/	.	.	.	.	.	4g#X/)	.
=8	=8	=8	=8	=8	=8	=8	=8
1AA/;>)	.	1E/;>	.	1c#X/;>	.	1a/;>	.
=9	=9	=9	=9	=9	=9	=9	=9
!	!	!LO:TX:b:Bi:t=a tempo:mod=	!	!LO:TX:b:Bi:t=a tempo:mod=	!	!LO:TX:b:Bi:t=a tempo:mod=	!
!!LO:TX:t=a tempo
1r	.	8D'</L	p	(>2ff\	p	1r	.
.	.	8C#X'</	.	.	.	.	.
.	.	8D'</	.	.	.	.	.
.	.	8F'</J	.	.	.	.	.
.	.	8A'>\L	.	4ee\	.	.	.
.	.	8c#X'>\	.	.	.	.	.
.	.	8d'>\	.	4dd\	.	.	.
.	.	8f'>\J	.	.	.	.	.
=10	=10	=10	=10	=10	=10	=10	=10
!	!	!	!	!LO:SIC:s=2ee)	!	!	!
1r	.	8a'>\L	.	2ee\	.	1r	.
.	.	8g#X'>\	.	.	.	.	.
.	.	8a'>\	.	.	.	.	.
.	.	8e'>\J	.	.	.	.	.
!	!	!	!	!LO:SIC:s=2r	!	!	!
.	.	8c#X'>\L	.	2r)	.	.	.
.	.	8e'>\	.	.	.	.	.
.	.	8c#'>\	.	.	.	.	.
.	.	8A'>\J	.	.	.	.	.
!!LO:PB:g=original
=11	=11	=11	=11	=11	=11	=11	=11
1r	.	8B-'>\L	.	(>2dd\	.	1r	.
.	.	8A'>\	.	.	.	.	.
.	.	8B-'>\	.	.	.	.	.
.	.	8f'>\J	.	.	.	.	.
.	.	8A'>\L	.	4cc\	.	.	.
.	.	8f'>\	.	.	.	.	.
.	.	8G'>\	.	4b-\	.	.	.
.	.	8f'>\J	.	.	.	.	.
=12	=12	=12	=12	=12	=12	=12	=12
1r	.	8A'>\L	.	2cc\)	.	1r	.
.	.	8c'>\	.	.	.	.	.
.	.	8f'>\	.	.	.	.	.
.	.	8f'>\J	.	.	.	.	.
.	.	8e'>\L	.	2r	.	.	.
.	.	8f'>\	.	.	.	.	.
.	.	8g'>\	.	.	.	.	.
.	.	8f'>\J	.	.	.	.	.
=13	=13	=13	=13	=13	=13	=13	=13
1r	.	8g'>\L	.	(<2b-/	.	1r	.
.	.	8f'>\	.	.	.	.	.
.	.	8e'>\	.	.	.	.	.
.	.	8d'>\J	.	.	.	.	.
.	.	8c#X'>\L	.	4a/	.	.	.
.	.	8d'>\	.	.	.	.	.
.	.	8e'>\	.	4g/)	.	.	.
.	.	8d'>\J	.	.	.	.	.
=14	=14	=14	=14	=14	=14	=14	=14
1r	.	8c#X'</L	.	4a'</	.	1r	.
.	.	8A'</	.	.	.	.	.
.	.	8Bn'</	.	4g'</	.	.	.
.	.	8c#'</J	.	.	.	.	.
.	.	8d'>\L	.	4f'</	.	.	.
!	!	!LO:TX:t=P:problem=♮ above	!	!	!	!	!
.	.	8cni'>\	.	.	.	.	.
.	.	8B'>\	.	4g'</	.	.	.
.	.	8G'>\J	.	.	.	.	.
=15	=15	=15	=15	=15	=15	=15	=15
1r	.	8A'>\L	.	(<2f/	.	1r	.
.	.	8a'>\	.	.	.	.	.
.	.	8f'>\	.	.	.	.	.
.	.	[>8d\J	.	.	.	.	.
.	.	8d\L]	.	2e/	.	.	.
.	.	8c#X'>\	.	.	.	.	.
.	.	8Bn'>\	.	.	.	.	.
.	.	8c#'>\J	.	.	.	.	.
=16	=16	=16	=16	=16	=16	=16	=16
!	!	!	!	!	!	!LO:MO:mod=!LO&colon;TX&colon;i&colon;t=con fuoco	!
!	!	!	!	!	!	!LO:TX:b:Bi:t=con fuoco	!
4D\	f	4d\	f	4d/)	f	2.d/	f
4D\	.	4F/	.	4A/	.	.	.
4D\	.	4F/	.	4A/	.	.	.
4D\	.	4F/	.	4A/	.	8c#X/L	.
.	.	.	.	.	.	8d/J	.
=17	=17	=17	=17	=17	=17	=17	=17
4D\	.	4F/	.	4d/ 4A/	.	8f/L	.
.	.	.	.	.	.	8d/	.
4D\	.	4F/	.	4d/ 4A/	.	8a/	.
.	.	.	.	.	.	8f/J	.
4D\	.	4d\	.	4f/ 4A/	.	8dd\L	.
.	.	.	.	.	.	8a\	.
4D\	.	4d\	.	4f/ 4A/	.	8ff\	.
.	.	.	.	.	.	8dd\J	.
=18	=18	=18	=18	=18	=18	=18	=18
4D\	.	4e\	.	4g/ 4B-/	.	8cc#X\L	.
.	.	.	.	.	.	8dd\	.
4D\	.	4e\	.	4g/ 4B-/	.	8ee\	.
.	.	.	.	.	.	8ff\J	.
4D\	.	4e\	.	4g/ 4B-/	.	8gg\L	.
.	.	.	.	.	.	8ff\	.
4D\	.	4e\	.	4g/ 4B-/	.	8ee\	.
.	.	.	.	.	.	8dd\J	.
=19	=19	=19	=19	=19	=19	=19	=19
4D\	.	4e\	.	4g/ 4A/	.	8cc#X\L	.
.	.	.	.	.	.	8b-\	.
4D\	.	4e\	.	4g/ 4A/	.	8a\	.
.	.	.	.	.	.	8b-\J	.
4D\	.	4c#X\	.	4g/ 4A/	.	8a/L	.
.	.	.	.	.	.	8g/	.
4D\	.	4c#\	.	4g/ 4A/	.	8f/	.
.	.	.	.	.	.	8e/J	.
=20	=20	=20	=20	=20	=20	=20	=20
4DD/	.	4d\	.	4f/ 4A/	.	4d/	.
4D\	.	4F/	.	4A/	.	(>8c#X/L	.
.	.	.	.	.	.	8d/J)	.
4D\	.	4F/	.	4A/	.	(>8g/L	.
.	.	.	.	.	.	8f/J)	.
4D\	.	4F/	.	4A/	.	(>8b-^<\L	.
.	.	.	.	.	.	8a\J)	.
!!LO:LB:g=original
=21	=21	=21	=21	=21	=21	=21	=21
4D\	.	4d\	.	4f/ 4A/	.	(>8ee^<\L	.
.	.	.	.	.	.	8dd\)	.
4D\	.	4d\	.	4f/ 4A/	.	(>8gg^<\	.
.	.	.	.	.	.	8ff\J)	.
4D\	.	4d\	.	4f/ 4A/	.	(>8bb-^<\L	.
.	.	.	.	.	.	8aa\)	.
4D\	.	4d\	.	4f/ 4A/	.	(>8fff^<\	.
.	.	.	.	.	.	8ddd\J)	.
=22	=22	=22	=22	=22	=22	=22	=22
4D\	.	4e\	.	4g/ 4B-/	.	(>8ccc#X\L	.
.	.	.	.	.	.	8eee\)	.
4D\	.	4e\	.	4g/ 4B-/	.	8ggg'>\	.
.	.	.	.	.	.	8fff'>\J	.
4D\	.	4e\	.	4g/ 4B-/	.	8eee\L	.
.	.	.	.	.	.	8ddd\	.
4D\	.	4e\	.	4g/ 4B-/	.	8ccc#\	.
.	.	.	.	.	.	8bb-\J	.
=23	=23	=23	=23	=23	=23	=23	=23
4D\	.	4c#X\	.	4g/ 4A/	.	8aa\L	.
.	.	.	.	.	.	8gg#X\	.
4D\	.	4c#\	.	4g/ 4A/	.	8aa\	.
.	.	.	.	.	.	8bb-\J	.
4D\	.	4c#\	.	4g/ 4A/	.	8aa\L	.
.	.	.	.	.	.	8ggn\	.
4D\	.	4c#\	.	4g/ 4A/	.	8ff\	.
.	.	.	.	.	.	8ee\J	.
=24	=24	=24	=24	=24	=24	=24	=24
!	!LO:MO:null:mod=!LO&colon;DY&colon;ed=brack	!	!	!	!	!	!
!	!LO:MO:null:mod=ff	!	!	!	!	!	!
8D\L	.	4d\	ff	4f/ 4A/	ff	4dd\	ff
8C#X\	.	.	.	.	.	.	.
8D\	.	4r	.	4r	.	4r	.
8E\J	.	.	.	.	.	.	.
8F\L	.	[>2a\	.	[>2dd\	.	2ddd\	.
8D\	.	.	.	.	.	.	.
8E\	.	.	.	.	.	.	.
8F\J	.	.	.	.	.	.	.
=25	=25	=25	=25	=25	=25	=25	=25
8F#X\L	.	1a\]	.	1dd\_>	.	4ccc\	.
8G\	.	.	.	.	.	.	.
8A\	.	.	.	.	.	4bbn\	.
8G\J	.	.	.	.	.	.	.
8F#\L	.	.	.	.	.	2ccc\	.
8D\	.	.	.	.	.	.	.
8E\	.	.	.	.	.	.	.
8F#\J	.	.	.	.	.	.	.
=26	=26	=26	=26	=26	=26	=26	=26
!LO:TX:t=P:problem=mixed beam	!	!	!	!	!	!	!
8G\L	.	2g\	.	2dd\]	.	2bb-X\	.
8GG/	.	.	.	.	.	.	.
8BB-/	.	.	.	.	.	.	.
8GG/J	.	.	.	.	.	.	.
8BB-\L	.	4c\	.	[>2cc\	.	4aa\	.
8F\	.	.	.	.	.	.	.
8E\	.	4e\	.	.	.	4gg\	.
8C\J	.	.	.	.	.	.	.
=27	=27	=27	=27	=27	=27	=27	=27
8F\L	.	1f\	.	1cc\]	.	1aa\	.
8A\	.	.	.	.	.	.	.
8F\	.	.	.	.	.	.	.
8C\J	.	.	.	.	.	.	.
8AA/L	.	.	.	.	.	.	.
8C/	.	.	.	.	.	.	.
8AA/	.	.	.	.	.	.	.
8FF/J	.	.	.	.	.	.	.
=28	=28	=28	=28	=28	=28	=28	=28
8EE/L	.	[>1a\	.	1cc#X\	.	2gg\	.
8FF/	.	.	.	.	.	.	.
8GG/	.	.	.	.	.	.	.
8EE/J	.	.	.	.	.	.	.
8AA/L	.	.	.	.	.	4ff\	.
8BB-/	.	.	.	.	.	.	.
8C#X/	.	.	.	.	.	4ee\	.
8AA/J	.	.	.	.	.	.	.
=29	=29	=29	=29	=29	=29	=29	=29
!	!LO:MO:null:mod=<	!	!	!	!LO:MO:null:mod=<	!	!
4D/	.	1a\]	<	4dd\	.	8ff\L	<
.	.	.	.	.	.	8gg\	.
4E\	.	.	.	4cc#X\	.	8ee\	.
.	.	.	.	.	.	8ff\J	.
!	!	!	!	!	!LO:MO:null:mod=[[	!	!
4F\	.	.	.	4dd\	.	8dd\L	.
.	.	.	.	.	.	8ee\	.
4F#X\	.	.	.	4r	.	8cc\	.
!	!LO:MO:null:mod=[[	!	!	!	!	!	!
.	.	.	[[	.	.	8dd\J	[[
=30	=30	=30	=30	=30	=30	=30	=30
2G\	.	2g\	.	2r	.	8bn\L	.
.	.	.	.	.	.	8cc\	.
.	.	.	.	.	.	8dd\	.
.	.	.	.	.	.	8een\J	.
2GG/	.	2fn\	.	2d/	.	8ff\L	.
.	.	.	.	.	.	8gg\	.
.	.	.	.	.	.	8aa\	.
!	!	!	!	!	!	!LO:SIC:v:s=8bbJ	!
.	.	.	.	.	.	8bb-\J	.
!!LO:LB:g=original
=31	=31	=31	=31	=31	=31	=31	=31
*tremolo	*	*	*	*	*	*	*
8C/L	.	(>2e\	.	(>4c/	.	(>2ccc\	.
8C/	.	.	.	.	.	.	.
8C/	.	.	.	4cc\	.	.	.
8C/J	.	.	.	.	.	.	.
8C/L	.	4e\	.	4dd\	.	4bbn\	.
8C/	.	.	.	.	.	.	.
8C/	.	4f#X\	.	4dd#X\	.	4aa\	.
8C/J	.	.	.	.	.	.	.
=32	=32	=32	=32	=32	=32	=32	=32
*rep	*	*	*	*	*	*	*
8C/L	.	4g\	.	1ee\)	.	1gg\)	.
8C/	.	.	.	.	.	.	.
8C/	.	4dd-X\	.	.	.	.	.
8C/J	.	.	.	.	.	.	.
8C/L	.	4cc\	.	.	.	.	.
8C/	.	.	.	.	.	.	.
8C/	.	4b-\)	.	.	.	.	.
8C/J	.	.	.	.	.	.	.
*Xrep	*	*	*	*	*	*	*
=33	=33	=33	=33	=33	=33	=33	=33
*rep	*	*	*	*	*	*	*
8C/L	.	(>2a\	.	(>4ff\	.	(>2aa\	.
8C/	.	.	.	.	.	.	.
8C/	.	.	.	4cc\	.	.	.
8C/J	.	.	.	.	.	.	.
8C/L	.	4b-\	.	4dd-X\	.	4gg\	.
8C/	.	.	.	.	.	.	.
8C/	.	4a\	.	4cc\	.	4ff\	.
8C/J	.	.	.	.	.	.	.
*Xrep	*	*	*	*	*	*	*
=34	=34	=34	=34	=34	=34	=34	=34
*rep	*	*	*	*	*	*	*
8C/L	.	4g\	.	2.cc\	.	4ee\	.
8C/	.	.	.	.	.	.	.
8C/	.	4f#X\	.	.	.	4ee-X\	.
8C/J	.	.	.	.	.	.	.
!	!	!	!	!	!	!LO:TX:a:t=P:problem=w źródle łuk konczy się na kresce taktowej	!
8C/L	.	2fn\)	.	.	.	2dd\)	.
8C/	.	.	.	.	.	.	.
8C/	.	.	.	4bn\)	.	.	.
8C/J	.	.	.	.	.	.	.
*Xrep	*	*	*	*	*	*	*
*Xtremolo	*	*	*	*	*	*	*
=35	=35	=35	=35	=35	=35	=35	=35
*^	*	*	*	*	*	*	*
*tremolo	*tremolo	*	*	*	*	*	*	*
*rep	*	*	*	*	*	*	*	*
!	!	!	!LO:SIC:v:s=(4e	!	!	!	!	!
8C/L	8CC/L	.	(>4d\	.	(>4cc\	.	(>2cc\	.
8C/	8CC/	.	.	.	.	.	.	.
8C/	8CC/	.	4c\	.	4e/	.	.	.
8C/J	8CC/	.	.	.	.	.	.	.
8C/L	8CC/	.	4d\	.	4f/	.	4bn\	.
8C/	8CC/	.	.	.	.	.	.	.
8C/	8CC/	.	4e\	.	4g/	.	4b-X\	.
8C/J	8CC/J	.	.	.	.	.	.	.
*Xrep	*	*	*	*	*	*	*	*
*Xtremolo	*Xtremolo	*	*	*	*	*	*	*
=36	=36	=36	=36	=36	=36	=36	=36	=36
*tremolo	*tremolo	*	*	*	*	*	*	*
*rep	*rep	*	*	*	*	*	*	*
!	!	!LO:MO:null:mod=>	!	!LO:MO:null:mod=>	!	!LO:HP:b:Bi:t=dim&colon;	!	!LO:HP:b:Bi:t=dim.
8C/L	8CC/L	.	4f\	.	1f/	>	2a/	>
8C/	8CC/	.	.	.	.	.	.	.
!	!	!	!	!LO:HP:b:Bi:t=dim&colon;	!	!	!	!
!	!	!	!	!LO:MO:null:mod=.	!	!	!	!
8C/	8CC/	.	2c\	>	.	.	.	.
8C/J	8CC/	.	.	.	.	.	.	.
8C/L	8CC/	.	.	.	.	.	2a-X/	.
8C/	8CC/	.	.	.	.	.	.	.
8C/	8CC/	.	4Bn\)	.	.	.	.	.
8C/J	8CC/J	.	.	.	.	.	.	.
*Xrep	*Xrep	*	*	*	*	*	*	*
*Xtremolo	*Xtremolo	*	*	*	*	*	*	*
=37	=37	=37	=37	=37	=37	=37	=37	=37
*tremolo	*tremolo	*	*	*	*	*	*	*
*rep	*rep	*	*	*	*	*	*	*
8C/L	8CC/L	.	(>2B-X/	.	4e/	.	2g/	.
8C/	8CC/	.	.	.	.	.	.	.
8C/	8CC/	.	.	.	4d-X/	.	.	.
8C/J	8CC/	.	.	.	.	.	.	.
8C/L	8CC/	.	4A/	.	[<2c/	.	4f/	.
8C/	8CC/	.	.	.	.	.	.	.
8C/	8CC/	.	[<4G/	.	.	.	4e/	.
8C/J	8CC/J	.	.	.	.	.	.	.
*Xrep	*Xrep	*	*	*	*	*	*	*
*Xtremolo	*Xtremolo	*	*	*	*	*	*	*
=38	=38	=38	=38	=38	=38	=38	=38	=38
*tremolo	*tremolo	*	*	*	*	*	*	*
*rep	*rep	*	*	*	*	*	*	*
8C/L	8CC/L	.	4G/]	.	2.c/]	.	2e-X/	.
8C/	8CC/	.	.	.	.	.	.	.
8C/	8CC/	.	4F#X/	.	.	.	.	.
8C/J	8CC/	.	.	.	.	.	.	.
8C/L	8CC/	.	2Fn/	.	.	.	2d/)	.
8C/	8CC/	.	.	.	.	.	.	.
8C/	8CC/	.	.	.	4Bn/)	.	.	.
8C/J	8CC/J	.	.	.	.	.	.	.
*Xrep	*Xrep	*	*	*	*	*	*	*
*Xtremolo	*Xtremolo	*	*	*	*	*	*	*
*v	*v	*	*	*	*	*	*	*
=39	=39	=39	=39	=39	=39	=39	=39
!	!LO:MO:null:mod=!LO&colon;DY&colon;ed=brack	!	!	!	!	!	!
!	!LO:MO:null:mod=p	!	!	!	!	!	!
(<2C/	.	(>2E/)	p	(>2c/	p	8c/L	p
.	.	.	.	.	.	8e/	.
.	.	.	.	.	.	8g/	.
.	.	.	.	.	.	8cc/J	.
4BBn/	.	4D/	.	4e/	.	8g#X\L	.
.	.	.	.	.	.	8ee\	.
!	!	!LO:TX:a:t=P:problem=w źródle łuk kończy się za nutą	!	!	!	!	!
4AA/)	.	4C/)	.	4e/)	.	8a\	.
.	.	.	.	.	.	8ee\J	.
=40	=40	=40	=40	=40	=40	=40	=40
(<2GG/	.	(>2Bn/	.	(>2e/	.	8e\L	.
.	.	.	.	.	.	8gn\	.
.	.	.	.	.	.	8bn\	.
.	.	.	.	.	.	8dd\J	.
4FF/	.	4d\	.	4g/	.	8b\L	.
.	.	.	.	.	.	8gg\	.
4EE/)	.	4c\)	.	4g/)	.	8cc\	.
.	.	.	.	.	.	8ccc\J	.
=41	=41	=41	=41	=41	=41	=41	=41
(<2DD/	.	(>2f\	.	(>2a/	.	(>8bbn\L	.
.	.	.	.	.	.	8aa\)	.
.	.	.	.	.	.	8gg'>\	.
.	.	.	.	.	.	8ff'>\J	.
2GG/)	.	2d\	.	2f/)	.	8ee'>\L	.
.	.	.	.	.	.	8dd'>\	.
.	.	.	.	.	.	8ff\	.
!	!	!	!	!	!	!LO:SIC:v:s=8bJ	!
.	.	.	.	.	.	8b-\J	.
=42	=42	=42	=42	=42	=42	=42	=42
4CC/	.	4c\)	.	4e/	.	(>8cc\L	.
.	.	.	.	.	.	8bn\	.
4r	.	4r	.	4r	.	8dd\	.
.	.	.	.	.	.	8cc\J	.
2r	.	2r	.	2r	.	8b-X\L	.
.	.	.	.	.	.	8a\	.
.	.	.	.	.	.	8b-\	.
.	.	.	.	.	.	8g\J)	.
!!LO:LB:g=original
=43	=43	=43	=43	=43	=43	=43	=43
*	*	*tremolo	*	*tremolo	*	*	*
!	!LO:MO:null:mod=!LO&colon;DY&colon;ed=brack	!	!	!	!	!	!
!	!LO:MO:null:mod=p	!	!	!	!	!	!
(<2F/	.	8A/L	p	8c/L	p	2f/	.
.	.	8A/	.	8c/	.	.	.
.	.	8A/	.	8c/	.	.	.
.	.	8A/	.	8c/	.	.	.
4C/	.	8A/	.	8c/	.	2r	.
.	.	8A/	.	8c/	.	.	.
4AA/)	.	8A/	.	8c/	.	.	.
.	.	8A/J	.	8c/J	.	.	.
=44	=44	=44	=44	=44	=44	=44	=44
*	*	*rep	*	*rep	*	*	*
!	!	!	!	!	!	!LO:MO:mod=!LO&colon;TX&colon;i&colon;t=dolce	!
!	!	!	!	!	!	!LO:TX:b:Bi:t=dol	!
!	!	!	!	!	!	!LO:SIC:s=(2aa^	!LO:DY:b:rj
2FF/	.	8A/L	.	8c/L	.	(>2aa\	p
.	.	8A/	.	8c/	.	.	.
.	.	8A/	.	8c/	.	.	.
.	.	8A/	.	8c/	.	.	.
2r	.	8A/	.	8c/	.	4gg\	.
.	.	8A/	.	8c/	.	.	.
.	.	8A/	.	8c/	.	4ff\)	.
.	.	8A/J	.	8c/J	.	.	.
*	*	*Xrep	*	*Xrep	*	*	*
=45	=45	=45	=45	=45	=45	=45	=45
*	*	*rep	*	*rep	*	*	*
!	!	!	!	!	!	!LO:SIC:v:s=(2ff^	!
1r	.	8A/L	.	8c/L	.	(>2gg^<\	.
.	.	8A/	.	8c/	.	.	.
.	.	8A/	.	8c/	.	.	.
.	.	8A/	.	8c/	.	.	.
.	.	8A/	.	8c/	.	4ee\	.
.	.	8A/	.	8c/	.	.	.
.	.	8A/	.	8c/	.	4dd\)	.
.	.	8A/J	.	8c/J	.	.	.
*	*	*Xrep	*	*Xrep	*	*	*
=46	=46	=46	=46	=46	=46	=46	=46
*	*	*rep	*	*rep	*	*	*
1r	.	8A/L	.	8c/L	.	(>8cc\L	.
.	.	8A/	.	8c/	.	8bn\	.
.	.	8A/	.	8c/	.	8dd\	.
.	.	8A/	.	8c/	.	8cc\J	.
.	.	8A/	.	8c/	.	8b-X\L	.
.	.	8A/	.	8c/	.	8a\	.
.	.	8A/	.	8c/	.	8g\	.
.	.	8A/J	.	8c/J	.	8f\J	.
*	*	*Xrep	*	*Xrep	*	*	*
=47	=47	=47	=47	=47	=47	=47	=47
(<2E/	.	8B-/L	.	8c/L	.	2g/)	.
.	.	8B-/	.	8c/	.	.	.
.	.	8B-/	.	8c/	.	.	.
.	.	8B-/	.	8c/	.	.	.
4C/	.	8B-/	.	8c/	.	2r	.
.	.	8B-/	.	8c/	.	.	.
4GG/)	.	8B-/	.	8c/	.	.	.
.	.	8B-/J	.	8c/J	.	.	.
=48	=48	=48	=48	=48	=48	=48	=48
*	*	*rep	*	*rep	*	*	*
!	!	!	!	!	!	!LO:TX:a:t=P:problem=diminuendolike accent	!
2EE/	.	8B-/L	.	8c/L	.	(>2bb-^<\	.
.	.	8B-/	.	8c/	.	.	.
.	.	8B-/	.	8c/	.	.	.
.	.	8B-/	.	8c/	.	.	.
2r	.	8B-/	.	8c/	.	4aa\	.
.	.	8B-/	.	8c/	.	.	.
.	.	8B-/	.	8c/	.	4gg\)	.
.	.	8B-/J	.	8c/J	.	.	.
*	*	*Xrep	*	*Xrep	*	*	*
=49	=49	=49	=49	=49	=49	=49	=49
*	*	*rep	*	*rep	*	*	*
!	!	!	!	!	!	!LO:TX:a:t=P:problem=diminuendolike accent	!
1r	.	8B-/L	.	8c/L	.	(>2gg^<\	.
.	.	8B-/	.	8c/	.	.	.
.	.	8B-/	.	8c/	.	.	.
.	.	8B-/	.	8c/	.	.	.
.	.	8B-/	.	8c/	.	4ff\	.
.	.	8B-/	.	8c/	.	.	.
.	.	8B-/	.	8c/	.	4ee\)	.
.	.	8B-/J	.	8c/J	.	.	.
*	*	*Xrep	*	*Xrep	*	*	*
=50	=50	=50	=50	=50	=50	=50	=50
*	*	*	*	*rep	*	*	*
1r	.	8B-/L	.	8c/L	.	(8ee\L	.
.	.	8B-/	.	8c/	.	8dd\	.
.	.	8B-/	.	8c/	.	8cc\	.
.	.	8B-/J	.	8c/	.	8bn\J	.
.	.	8E/L	.	8c/	.	8cc\L	.
.	.	8E/	.	8c/	.	8cc#X\	.
.	.	8E/	.	8c/	.	8dd\	.
!	!	!	!	!	!	!LO:SIC:v:s=8b-\J)	!
.	.	8E/J	.	8c/J	.	8b\J)	.
*	*	*	*	*Xrep	*	*	*
*	*	*Xtremolo	*	*	*	*	*
=51	=51	=51	=51	=51	=51	=51	=51
!LO:MO:mod=!LO&colon;TX&colon;i&colon;t=pizz.	!	!	!	!	!	!	!
!LO:TX:b:Bi:t=pizz&colon;	!	!	!	!	!	!	!
4FF/	.	(<8F/L	.	8c/L	.	2a\	.
.	.	8A/)	.	8c/	.	.	.
4C/	.	8A'</	.	8c/	.	.	.
.	.	8A'</J	.	8c/J	.	.	.
*	*	*	*	*Xtremolo	*	*	*
4AA/	.	(<8A/L	.	(<8f/L	.	8r	.
.	.	8c/)	.	8c/)	.	8cc\L	.
4FF/	.	8c'</	.	8c'</	.	8ff\	.
.	.	8c'</J	.	8c'</J	.	8aa\J	.
=52	=52	=52	=52	=52	=52	=52	=52
4EE/	.	(<8B-/L	.	(<8f/L	.	(>2ccc\	.
.	.	8c/)	.	8c/)	.	.	.
4GG/	.	8c'</	.	8c'</	.	.	.
.	.	8c'</J	.	8c'</J	.	.	.
*	*	*rep	*	*rep	*	*	*
4C/	.	(<8B-/L	.	(<8f/L	.	4bb-\	.
.	.	8c/)	.	8c/)	.	.	.
4E\	.	8c'</	.	8c'</	.	4gg\	.
.	.	8c'</J	.	8c'</J	.	.	.
*	*	*Xrep	*	*Xrep	*	*	*
=53	=53	=53	=53	=53	=53	=53	=53
4F\	.	(<8A/L	.	(<8f/L	.	2aa\)	.
.	.	8c/)	.	8c/)	.	.	.
!	!	!LO:SIC:s=8c'	!	!	!	!	!
4C/	.	8c/	.	8c'</	.	.	.
!	!	!LO:SIC:s=8c'J	!	!	!	!	!
.	.	8c/J	.	8c'</J	.	.	.
*	*	*rep	*	*rep	*	*	*
4AA/	.	(<8A/L	.	(<8f/L	.	8r	.
.	.	8c/)	.	8c/)	.	8cc\L	.
!	!	!LO:SIC:s=8c'	!	!	!	!	!
4FF/	.	8c/	.	8c'</	.	8ff\	.
!	!	!LO:SIC:s=8c'J	!	!	!	!	!
.	.	8c/J	.	8c'</J	.	8aa\J	.
*	*	*Xrep	*	*Xrep	*	*	*
=54	=54	=54	=54	=54	=54	=54	=54
!	!	!	!	!LO:SIC:s=(8gL	!	!	!
4EE/	.	(<8B-/L	.	8g/L	.	(>2ccc\	.
!	!	!	!	!LO:SIC:s=8c)	!	!	!
.	.	8c/)	.	8c/	.	.	.
!	!	!LO:SIC:s=8c'	!	!LO:SIC:s=8c'	!	!	!
4GG/	.	8c/	.	8c/	.	.	.
!	!	!LO:SIC:s=8c'J	!	!LO:SIC:s=8c'J	!	!	!
.	.	8c/J	.	8c/J	.	.	.
*	*	*rep	*	*rep	*	*	*
!	!	!	!	!LO:SIC:s=(8gL	!	!	!
4C/	.	(<8B-/L	.	8g/L	.	4bb-\	.
!	!	!	!	!LO:SIC:s=8c)	!	!	!
.	.	8c/)	.	8c/	.	.	.
!	!	!LO:SIC:s=8c'	!	!LO:SIC:s=8c'	!	!	!
4E\	.	8c/	.	8c/	.	4gg\	.
!	!	!LO:SIC:s=8c'J	!	!LO:SIC:s=8c'J	!	!	!
.	.	8c/J	.	8c/J	.	.	.
*	*	*Xrep	*	*Xrep	*	*	*
!!LO:LB:g=original
=55	=55	=55	=55	=55	=55	=55	=55
!	!	!	!	!	!	!LO:TX:a:t=P:problem=W źródle brak zkończenia łuku	!
4F\	.	8A/L	f	4f/	.	2aa\)	.
.	.	8F/	.	.	.	.	.
4r	.	8A/	.	4r	.	.	.
.	.	8c/J	.	.	.	.	.
2r	.	4f\	.	2r	.	8r	.
!	!	!	!	!	!	!	!LO:MO:null:mod=!LO&colon;DY&colon;ed=brack
!	!	!	!	!	!	!	!LO:MO:null:mod=f
.	.	.	.	.	.	8a\L	.
.	.	4r	.	.	.	8cc\	.
.	.	.	.	.	.	8ff\J	.
=56	=56	=56	=56	=56	=56	=56	=56
2r	.	4r	.	4r	.	4aa'>\	.
!	!	!	!	!	!LO:DY:b:rj	!	!
.	.	4a'>\	.	4cc#X'>\	f	4gg'>\	.
4r	.	4d'>\	.	4dd'>\	.	4ff'>\	.
!LO:MO:mod=!LO&colon;TX&colon;i&colon;t=arco	!	!	!	!	!	!	!
!LO:TX:a:Bi:t=arco	!LO:DY:b:rj	!	!	!	!	!	!
4D#X\	f	4d#X\	.	(>&(<4a/	.	[>4ccc\	.
=57	=57	=57	=57	=57	=57	=57	=57
(>2E\	.	(>2e\	.	2g/&)	.	8ccc\L]	.
.	.	.	.	.	.	(>8bbn\	.
.	.	.	.	.	.	8aa\	.
.	.	.	.	.	.	8gg\J	.
!	!	!	!	!LO:TX:a:t=P:problem=W źródle łuk kończy się na kresce taktowej	!	!	!
!	!	!LO:TX:a:t=P:problem=W źródle łuk kończy się za nutą	!	!	!	!	!
2GG/)	.	2f\)	.	2bn\)	.	8ff#X\L	.
.	.	.	.	.	.	8gg\	.
.	.	.	.	.	.	8ffn\	.
.	.	.	.	.	.	8dd\J)	.
=58	=58	=58	=58	=58	=58	=58	=58
4C/	.	4e\	.	(>8cc\L	>	4cc\	.
.	.	.	.	8cc#X\	.	.	.
4r	.	4r	.	8ee\	.	4r	.
.	.	.	.	8dd\J	.	.	.
2r	.	2r	.	8ccn\L	.	2r	.
.	.	.	.	8b-\	.	.	.
.	.	.	.	8a\	]	.	.
.	.	.	.	8g\J)	.	.	.
=59	=59	=59	=59	=59	=59	=59	=59
!	!	!LO:MO:mod=!LO&colon;TX&colon;i&colon;t=pizz.	!	!	!	!	!
!	!	!LO:TX:b:Bi:t=pizz.	!	!	!	!	!
1r	.	4c/ 4F/	p	4f/	p	8r	p
.	.	.	.	.	.	8f/L	.
.	.	4c/ 4F/	.	4r	.	8a/	.
.	.	.	.	.	.	8cc/J	.
.	.	4c/ 4F/	.	2r	.	2ff\	.
.	.	4c/ 4F/	.	.	.	.	.
*clefG2	*	*	*	*	*	*	*
=60	=60	=60	=60	=60	=60	=60	=60
*	*	*rep	*	*	*	*	*
!LO:MO:mod=!LO&colon;TX&colon;i&colon;t=dolce	!	!	!	!LO:MO:mod=!LO&colon;TX&colon;i&colon;t=pizz.	!	!	!
!LO:TX:b:Bi:t=dol&colon;	!	!	!	!LO:TX:b:Bi:t=pizz&colon;	!	!	!
!LO:SIC:s=(2aa^	!LO:DY:b:rj	!	!	!	!	!	!
(>2aa\	p	4c/ 4F/	.	4f/ 4A/	.	8r	.
.	.	.	.	.	.	8a\L	.
.	.	4c/ 4F/	.	4f/ 4A/	.	8cc\	.
.	.	.	.	.	.	8ff\J	.
4gg\	.	4c/ 4F/	.	4f/ 4A/	.	2aa\	.
4ff\)	.	4c/ 4F/	.	4f/ 4A/	.	.	.
*	*	*Xrep	*	*	*	*	*
=61	=61	=61	=61	=61	=61	=61	=61
*	*	*rep	*	*rep	*	*	*
(>2ff^<\	.	4c/ 4F/	.	4f/ 4A/	.	8r	.
.	.	.	.	.	.	8cc\L	.
.	.	4c/ 4F/	.	4f/ 4A/	.	8ff\	.
.	.	.	.	.	.	8aa\J	.
4ee\	.	4c/ 4F/	.	4f/ 4A/	.	(>2ccc\	.
4dd\)	.	4c/ 4F/	.	4f/ 4A/	.	.	.
*	*	*Xrep	*	*Xrep	*	*	*
=62	=62	=62	=62	=62	=62	=62	=62
*	*	*rep	*	*rep	*	*	*
(>8cc\L	.	4c/ 4F/	.	4f/ 4A/	.	4fff\)	.
8bn\	.	.	.	.	.	.	.
8dd\	.	4c/ 4F/	.	4f/ 4A/	.	4r	.
8cc\J	.	.	.	.	.	.	.
8b-X/L	.	4c/ 4F/	.	4f/ 4A/	.	2r	.
8a/	.	.	.	.	.	.	.
8g/)	.	4c/ 4F/	.	4f/ 4A/	.	.	.
8f/J	.	.	.	.	.	.	.
*	*	*Xrep	*	*Xrep	*	*	*
=63	=63	=63	=63	=63	=63	=63	=63
2g/	.	4c/ 4E/	.	4g/ 4B-/	.	8r	.
.	.	.	.	.	.	8c/L	.
.	.	4c/ 4E/	.	4g/ 4B-/	.	8e/	.
.	.	.	.	.	.	8g/J	.
2r	.	4c/ 4E/	.	4g/ 4B-/	.	2cc\	.
.	.	4c/ 4E/	.	4g/ 4B-/	.	.	.
=64	=64	=64	=64	=64	=64	=64	=64
*	*	*rep	*	*rep	*	*	*
(>2bb-^<\	.	4c/ 4E/	.	4g/ 4B-/	.	8r	.
.	.	.	.	.	.	8e/L	.
.	.	4c/ 4E/	.	4g/ 4B-/	.	8g/	.
.	.	.	.	.	.	8cc/J	.
4aa\	.	4c/ 4E/	.	4g/ 4B-/	.	2ee\	.
4gg\)	.	4c/ 4E/	.	4g/ 4B-/	.	.	.
*	*	*Xrep	*	*Xrep	*	*	*
=65	=65	=65	=65	=65	=65	=65	=65
*	*	*rep	*	*rep	*	*	*
(>2gg^<\	.	4c/ 4E/	.	4g/ 4B-/	.	8r	.
.	.	.	.	.	.	8g\L	.
.	.	4c/ 4E/	.	4g/ 4B-/	.	8cc\	.
.	.	.	.	.	.	8ee\J	.
4ff\	.	4c/ 4E/	.	4g/ 4B-/	.	(>2gg\	.
!LO:TX:a:t=P:problem=W źródle przed kreską taktową coś na kształt klucza G2	!	!	!	!	!	!	!
4ee\)	.	4c/ 4E/	.	4g/ 4B-/	.	.	.
*	*	*Xrep	*	*Xrep	*	*	*
!!LO:PB:g=original
=66	=66	=66	=66	=66	=66	=66	=66
*	*	*rep	*	*rep	*	*	*
(>8ee\L	.	4c/ 4E/	.	4g/ 4B-/	.	4ccc\)	.
8dd\	.	.	.	.	.	.	.
8cc\	.	4c/ 4E/	.	4g/ 4B-/	.	4r	.
8bn\J	.	.	.	.	.	.	.
8cc\L	.	4c/ 4E/	.	4g/ 4B-/	.	2r	.
8cc#X\	.	.	.	.	.	.	.
8dd\	.	4c/ 4E/	.	4g/ 4B-/	.	.	.
8b-X\J)	.	.	.	.	.	.	.
*	*	*Xrep	*	*Xrep	*	*	*
=67	=67	=67	=67	=67	=67	=67	=67
4a\	.	4c/ 4F/	.	4f/ 4A/	.	8r	.
!	!	!	!	!	!	!	!LO:DY:b:rj
.	.	.	.	.	.	8a\L	f
!	!	!	!	!	!	!LO:SIC:v:s=8c	!
4r	.	4r	.	4r	.	8b-\	.
!	!	!	!	!	!	!LO:SIC:v:s=8ffJ	!
.	.	.	.	.	.	8ee\J	.
2r	.	2r	.	8r	.	[>2aa\	.
!	!	!	!	!LO:MO:mod=!LO&colon;TX&colon;i&colon;t=arco	!	!	!
!	!	!	!	!LO:TX:a:Bi:t=arco	!	!	!
!	!	!	!	!LO:SIC:v:s=8fL	!	!	!
.	.	.	.	8e\L	f	.	.
.	.	.	.	8a\	.	.	.
.	.	.	.	8cc\J	.	.	.
=68	=68	=68	=68	=68	=68	=68	=68
*clefF4	*	*	*	*	*	*	*
2r	.	2r	.	(>2ff\	.	4aa\]	.
.	.	.	.	.	.	(>8gg\L	.
.	.	.	.	.	.	8ff\J	.
!	!	!LO:MO:null:mod=!LO&colon;TX&colon;i&colon;t=arco	!	!	!	!	!
2F\	f	(>2c\	f	2a/)	.	8ee-X\L	.
.	.	.	.	.	.	8dd\	.
.	.	.	.	.	.	8ff\	.
.	.	.	.	.	.	8ee-\J)	.
=69	=69	=69	=69	=69	=69	=69	=69
1BB-/	.	1d\	.	1b-\	.	(>8dd\L	.
.	.	.	.	.	.	8ee-X\	.
.	.	.	.	.	.	8dd\	.
.	.	.	.	.	.	8cc#X\J	.
.	.	.	.	.	.	8dd\L	.
.	.	.	.	.	.	8ff\	.
.	.	.	.	.	.	8bb-\	.
.	.	.	.	.	.	8ddd\J)	.
=70	=70	=70	=70	=70	=70	=70	=70
1BBn/	fz	(>1e\)	.	1g#X/	fz	(>8ccc#X\L	.
.	.	.	.	.	.	8ddd\	.
.	.	.	.	.	.	8fff\	.
.	.	.	.	.	.	8eee\J	.
.	.	.	.	.	.	8ggg\L	.
.	.	.	.	.	.	8fff\	.
.	.	.	.	.	.	8eee\	.
.	.	.	.	.	.	8ddd\J)	.
=71	=71	=71	=71	=71	=71	=71	=71
[>1C/	.	1f\)	.	(>1a/	.	(>8ccc\L	.
.	.	.	.	.	.	8bbn\	.
.	.	.	.	.	.	8ddd\	.
.	.	.	.	.	.	8ccc\J	.
.	.	.	.	.	.	8bb-X\L	.
.	.	.	.	.	.	8aa\	.
.	.	.	.	.	.	8gg\	.
.	.	.	.	.	.	8ff\J	.
=72	=72	=72	=72	=72	=72	=72	=72
1C/]	.	(>2g\	.	2b-/	.	8ee\L	.
.	.	.	.	.	.	8dd\	.
.	.	.	.	.	.	8cc\	.
.	.	.	.	.	.	8bn\J	.
.	.	2B-\)	.	2e/	.	8dd\L	.
.	.	.	.	.	.	8cc\	.
.	.	.	.	.	.	8b-X\	.
.	.	.	.	.	.	8g\J)	.
=73	=73	=73	=73	=73	=73	=73	=73
4F\	.	8A/L	p	4f/)	.	4f/	.
.	.	8F/	.	.	.	.	.
4r	.	8A/	.	4r	.	4r	.
.	.	8c/J	.	.	.	.	.
2r	.	4f\	.	8r	.	2r	.
.	.	.	.	8f/L	p	.	.
.	.	4r	.	8a/	.	.	.
.	.	.	.	8cc/J	.	.	.
=74	=74	=74	=74	=74	=74	=74	=74
2r	.	2r	.	2.ff\	.	4r	.
.	.	.	.	.	.	(>4aa\	p
!	!LO:MO:null:mod=!LO&colon;DY&colon;ed=brack	!	!	!	!	!	!
!	!LO:MO:null:mod=p	!	!	!	!	!	!
4A'>\	.	[>2a\	.	.	.	2gg\	.
8Bn'>\L	.	.	.	[>4ee\	.	.	.
8c#X'>\J	.	.	.	.	.	.	.
=75	=75	=75	=75	=75	=75	=75	=75
!	!	!	!	!	!	!LO:TX:b:Bi:t=cres_:problem=dynamics with extention lines:mod=	!
!	!	!	!	!	!	!	!LO:HP:b:Bi:t=cres:ext=ud
!	!	!	!	!LO:TX:b:Bi:t=cres_:problem=dynamics with extention lines:mod=	!	!	!
!	!	!	!	!	!LO:HP:b:Bi:t=cres:ext=ud	!	!
!	!	!LO:TX:b:Bi:t=cres_:problem=dynamics with extention lines:mod=	!	!	!	!	!
!	!LO:MO:null:mod=<	!	!LO:HP:b:Bi:t=cres:ext=ud	!	!	!	!
4d'>\	.	2a\]	<	4ee\]	<	2ff\	<
4D'>\	.	.	.	2dd\	.	.	.
!	!	!	!	!	!	!LO:TX:a:t=P:problem=w źródle łuk konczy się na kresce taktowej	!
4F'>\	.	[>2f\	.	.	.	2ee-X\)	.
8G'>\L	.	.	.	[>4cc\	.	.	.
8A'>\J	.	.	.	.	.	.	.
!!LO:LB:g:original
=76	=76	=76	=76	=76	=76	=76	=76
4B-\	.	2f\]	.	4cc\]	.	2dd\	.
4BB-/	.	.	.	2b-\	.	.	.
4D\	.	[>2d\	.	.	.	2cc\	.
8E\L	.	.	.	[>4a\	.	.	.
8F#X\J	.	.	.	.	.	.	.
=77	=77	=77	=77	=77	=77	=77	=77
4G\	.	1d\_>	.	4a/]	.	2b-\	.
4GG/	.	.	.	2g/	.	.	.
(>4.D\	.	.	.	.	.	2a/	.
!	!	!	!	!	!LO:MO:null:mod=.	!	!
.	.	.	.	4f#X/	[	.	.
!	!LO:MO:null:mod=[[	!	!LO:MO:null:mod=[[	!	!LO:MO:null:mod=[[	!	!
8C\)	.	.	[	.	.	.	[[
=78	=78	=78	=78	=78	=78	=78	=78
!	!LO:MO:null:mod=!LO&colon;DY&colon;ed=brack	!	!	!	!	!	!
!	!LO:MO:null:mod=f	!	!	!	!	!	!
4BB-'</	.	4d\]	f	4g/	f	4g/	f
4AA'</	.	4d'>\	.	4r	.	4f#X/	.
4BB-'</	.	4d'>\	.	4r	.	4g/	.
!	!	!	!	!LO:TX:t=P:problem=w źródle jeden skreślony takt	!	!LO:TX:t=P:problem=w źródle jeden skreślony takt	!
!LO:TX:t=P:problem=w źródle jeden skreślony takt	!	!LO:TX:t=P:problem=w źródle jeden skreślony takt	!	!	!	!	!
4BBn'</	.	4d'>\	.	4g#X\	.	[>4fff\	.
=79	=79	=79	=79	=79	=79	=79	=79
!	!	!	!	!	!	!	!LO:DY:b:rj
[>1C/	sf	[>1c\	sf	[>1a/	sf	8fff\L]	sf
.	.	.	.	.	.	8eee\	.
.	.	.	.	.	.	8ddd\	.
.	.	.	.	.	.	8ccc\J	.
.	.	.	.	.	.	8bbn\L	.
.	.	.	.	.	.	8ccc\	.
.	.	.	.	.	.	8aa\	.
.	.	.	.	.	.	8ff\J	.
=80	=80	=80	=80	=80	=80	=80	=80
4C/]	.	4c\]	.	4a/]	.	2cc\	.
4C'</	.	4c'>\	.	4f/ 4A'</	.	.	.
4C'</	.	4e\ 4c'>\	.	4B-'</	.	2ggT>\	.
4C'</	.	4e\ 4c'>\	.	4B-'</	.	.	.
.	.	.	.	.	.	16qqff/LL	.
.	.	.	.	.	.	16qqgg/JJ	.
=81	=81	=81	=81	=81	=81	=81	=81
(>2F\	>	4f\ 4c\	.	4A/	.	4ff\	.
.	.	4r	.	4r	.	4r	.
!	!LO:MO:null:mod=.	!	!	!	!	!	!
4E\	]	2r	.	2r	.	2r	.
!	!LO:DY:b:rj	!	!	!	!	!	!
!	!LO:MO:null:mod=]	!	!	!	!	!	!
4D\)	p	.	.	.	.	.	.
=82	=82	=82	=82	=82	=82	=82	=82
!	!	!	!LO:MO:null:mod=!LO&colon;DY&colon;ed=brack	!	!	!	!
!	!LO:MO:null:mod=p	!	!LO:MO:null:mod=p	!	!LO:HP:a	!	!
1C#X/	.	[>1A/	.	(<2a/	p >	1r	.
.	.	.	.	4g#X/	.	.	.
.	.	.	.	4gn/	]]	.	.
=83	=83	=83	=83	=83	=83	=83	=83
(<2Cn/	.	2A/]	.	2f#X/)	.	(>2ee-X\	p >
4BB-/)	.	4B-/	.	4g/	.	4dd\)	.
4AA/	.	4d'>\	.	4f#/	.	4cc'>\	]]
=84	=84	=84	=84	=84	=84	=84	=84
4GG/	.	4d'>\	.	4g/	.	4b-'>\	.
4BB-/	.	4B-'</	.	4d'</	.	4g'>\	.
4C/	.	4A'</	.	4c'</	.	4f'</	.
4C/	.	4B-'</	.	4c'</	.	4e'</	.
=85	=85	=85	=85	=85	=85	=85	=85
(>2F\	.	4A'</	.	4c'</	.	4f'</	.
.	.	4r	.	4r	.	4r	.
4E\	.	2r	.	2r	.	2r	.
4D\)	.	.	.	.	.	.	.
=86	=86	=86	=86	=86	=86	=86	=86
2C#X/	.	1r	.	(<2e/	.	(>1a/	.
2Cn/	.	.	.	2e-X/	.	.	.
=87	=87	=87	=87	=87	=87	=87	=87
[>1BB-/	.	1r	.	[>1d/	.	2b-/	.
.	.	.	.	.	.	2a/	.
!!LO:LB:g=original
=88	=88	=88	=88	=88	=88	=88	=88
!	!	!	!	!LO:TX:a:t=P:problem=w źródle po łamaniu systemu ligatura i łuk obracają się	!	!	!
1BB-/]	.	1r	.	4d/]	.	1g#X/)	.
.	.	.	.	4f/	.	.	.
.	.	.	.	4e/	.	.	.
.	.	.	.	4d/)	.	.	.
=89	=89	=89	=89	=89	=89	=89	=89
!	!LO:MO:null:mod=<	!	!	!	!	!	!
(>2AA/	.	(>[>1A/	<	(<2c#X/	<	(<2a/	<
4BBn/	.	.	.	4d/	.	4g#X/	.
4C#X/	.	.	.	4e/	.	4gn/	.
=90	=90	=90	=90	=90	=90	=90	=90
!	!LO:MO:null:mod=[	!	!	!	!	!	!
4D\	.	2.A/]	[	4d/)	[	4f/)	[
4E\	.	.	.	4r	.	(<4c#X'</	.
4F\	.	.	.	4r	.	(>4d'</)	.
4BBn\	fp	4G#X/)	[ fp	4d/	fp	[>4ff\	fp
=91	=91	=91	=91	=91	=91	=91	=91
[>1C/)	.	(>1A/	.	[<1c/	.	4ff\]	.
.	.	.	.	.	.	4a/	.
!	!	!	!	!	!	!LO:TX:a:t=P:problem=diminuendolike accent	!
.	.	.	.	.	.	4dd^<\	.
.	.	.	.	.	.	4cc\)	.
=92	=92	=92	=92	=92	=92	=92	=92
1C/]	.	1B-/	.	4c/]	.	(>2cc\	.
.	.	.	.	(<4c/	.	.	.
!	!	!	!	!LO:TX:a:t=P:problem=diminuendolike accent	!	!	!
.	.	.	.	4a^>/	.	2e/)	.
.	.	.	.	4g/	.	.	.
=93	=93	=93	=93	=93	=93	=93	=93
!!LO:TX:a:Bi:t=1a:mod=1.
*>A1	*	*>A1	*	*>A1	*	*>A1	*
(>2F\	p	2A/)	p	2f/)	p	2f/	p
4E\	.	2r	.	2r	.	2r	.
4D\	.	.	.	.	.	.	.
=94	=94	=94	=94	=94	=94	=94	=94
1C/)	.	(<1B-/	.	(>1e/	.	(>2cc\	.
.	.	.	.	.	.	4b-\	.
.	.	.	.	.	.	4g/	.
=95	=95	=95	=95	=95	=95	=95	=95
(>2F\	.	2A/)	.	2f/)	.	2f/)	.
4E\	.	2r	.	2r	.	2r	.
4D\	.	.	.	.	.	.	.
=96	=96	=96	=96	=96	=96	=96	=96
1C/)	.	(>2c\	.	(<2e/	.	1cc\	.
.	.	4d\	.	4f/	.	.	.
.	.	4e\)	.	4g/)	.	.	.
=97:|!	=97:|!	=97:|!	=97:|!	=97:|!	=97:|!	=97:|!	=97:|!
!!LO:TX:a:Bi:t=2da:mod=2.
*>A2	*	*>A2	*	*>A2	*	*>A2	*
(>2F\	.	2A/	.	8f'</L	.	2f/	.
.	.	.	.	8c'</	.	.	.
.	.	.	.	8d'</	.	.	.
.	.	.	.	8e'</J	.	.	.
4A\	.	2r	.	8f'</L	.	2r	.
.	.	.	.	8g'</	.	.	.
4F\)	.	.	.	8a'</	.	.	.
.	.	.	.	8a'</J	.	.	.
=98	=98	=98	=98	=98	=98	=98	=98
1C/	.	(<1B-/	.	8g'</L	.	(>2cc\	.
.	.	.	.	8b-'</	.	.	.
.	.	.	.	8g'</	.	.	.
.	.	.	.	8e'</J	.	.	.
.	.	.	.	8c'</L	.	4b-\	.
.	.	.	.	8d'</	.	.	.
.	.	.	.	8d#X'</	.	4g\	.
.	.	.	.	8e'</J	.	.	.
=99	=99	=99	=99	=99	=99	=99	=99
(>2F\	.	2A/)	.	8f'</L	.	2f/	.
.	.	.	.	8c'</	.	.	.
.	.	.	.	8d'</	.	.	.
.	.	.	.	8e'</J	.	.	.
4A\	.	2r	.	8f'</L	.	2r)	.
.	.	.	.	8g'</	.	.	.
4F\)	.	.	.	8a'</	.	.	.
.	.	.	.	8a'</J	.	.	.
=100	=100	=100	=100	=100	=100	=100	=100
*>B	*	*>B	*	*>B	*	*>B	*
1C/	.	(<1B-/	.	8g'</L	.	(>2cc\	.
.	.	.	.	8b-'</	.	.	.
.	.	.	.	8g'</	.	.	.
.	.	.	.	8e'</J	.	.	.
.	.	.	.	8c'</L	.	4b-\	.
.	.	.	.	8d'</	.	.	.
.	.	.	.	8d#X'</	.	4g\)	.
.	.	.	.	8e'</J	.	.	.
=101	=101	=101	=101	=101	=101	=101	=101
(>2F\	.	2A/)	.	8f'</L	.	(>2f/	.
.	.	.	.	8c'</	.	.	.
.	.	.	.	8d'</	.	.	.
.	.	.	.	8e'</J	.	.	.
4A\	.	2r	.	8f'</L	.	2ee-X\	.
.	.	.	.	8g'</	.	.	.
!LO:TX:a:t=P:problem=W źródle łuk kończy sie na kresce taktowej	!	!	!	!	!	!	!
4F\)	.	.	.	8a'</	.	.	.
.	.	.	.	8a'</J	.	.	.
!!LO:LB:g=original
=102	=102	=102	=102	=102	=102	=102	=102
1F#X\	.	[>1d\	.	8a/L	.	2dd\	.
.	.	.	.	8cc/	.	.	.
.	.	.	.	8a/	.	.	.
.	.	.	.	8f#X/J	.	.	.
!	!	!	!	!	!	!LO:TX:a:t=P:problem=w źródle łuk kończy się na kresce taktowej	!
.	.	.	.	8d/L	.	2cc\)	.
.	.	.	.	8f#/	.	.	.
.	.	.	.	8g/	.	.	.
.	.	.	.	8a/J	.	.	.
=103	=103	=103	=103	=103	=103	=103	=103
!	!	!LO:TX:b:Bi:t=cres_:problem=dynamics with extention lines:mod=	!LO:TX:b:Bi:t=cres_:problem=dynamics with extention lines:mod=	!	!LO:TX:b:Bi:t=cres_:problem=dynamics with extention lines:mod=	!	!
!	!LO:MO:null:mod=<	!	!LO:HP:b:Bi:t=cres:ext=ud	!	!LO:HP:b:Bi:t=cres:ext=ud	!	!LO:HP:b:Bi:t=cres:ext=ud
2G\	.	1d\_>	<	2g/	<	8b-\L	<
.	.	.	.	.	.	8dd\	.
.	.	.	.	.	.	8ee\	.
.	.	.	.	.	.	8ff#X\J	.
4A\	.	.	.	2b-/ 2g/	.	8gg\L	.
.	.	.	.	.	.	8aa\	.
4G\	.	.	.	.	.	8bb-\	.
.	.	.	.	.	.	8gg\J	.
=104	=104	=104	=104	=104	=104	=104	=104
1D\	.	1d\_>	.	1cc/ 1a/	.	8ff#X\L	.
.	.	.	.	.	.	8ccc\	.
.	.	.	.	.	.	8aa\	.
.	.	.	.	.	.	8ff#\J	.
.	.	.	.	.	.	8dd\L	.
.	.	.	.	.	.	8ee-X\	.
.	.	.	.	.	.	8een\	.
.	.	.	.	.	.	8ff#\J	.
=105	=105	=105	=105	=105	=105	=105	=105
2G\	.	1d\]	.	1b-/ 1g/	.	8gg\L	.
.	.	.	.	.	.	8dd\	.
.	.	.	.	.	.	8een\	.
.	.	.	.	.	.	8ff#X\J	.
4B-\	.	.	.	.	.	8gg\L	.
.	.	.	.	.	.	8aa\	.
4G\	.	.	.	.	.	8bb-\	.
.	.	.	.	.	.	8gg\J	.
=106	=106	=106	=106	=106	=106	=106	=106
1D\	.	1c\	.	(>1a/	.	8ff#X\L	.
.	.	.	.	.	.	8ccc\	.
.	.	.	.	.	.	8aa\	.
.	.	.	.	.	.	8ff#\J	.
.	.	.	.	.	.	8dd\L	.
.	.	.	.	.	.	8dd#X\	.
!	!	!	!	!	!	!	!LO:MO:null:mod=.
.	.	.	.	.	.	8ee\	[
!	!LO:MO:null:mod=[[	!	!	!	!	!	!LO:MO:null:mod=[[
.	.	.	[[	.	[[	8ff#\J	.
=107	=107	=107	=107	=107	=107	=107	=107
!	!LO:MO:null:mod=!LO&colon;DY&colon;ed=brack	!	!	!	!	!	!
!	!LO:MO:null:mod=ff	!	!	!	!	!	!
8E-X/L	.	4B-/	ff	4g/)	ff	[>1gg\	ff
8EE-X/	.	.	.	.	.	.	.
8GG/	.	4r	.	4r	.	.	.
8BB-/J	.	.	.	.	.	.	.
4E-/	.	2r	.	2r	.	.	.
4EE-/	.	.	.	.	.	.	.
=108	=108	=108	=108	=108	=108	=108	=108
2DD/	.	(>1Bn/	fz	(>1f/ [<1G/	fz	8gg\L]	.
.	.	.	.	.	.	8gg\	.
.	.	.	.	.	.	8ff#X\	.
.	.	.	.	.	.	8gg\J	.
2GG/	.	.	.	.	.	8aa\L	.
.	.	.	.	.	.	8bbn\	.
.	.	.	.	.	.	8ccc\	.
.	.	.	.	.	.	8ddd\J	.
=109	=109	=109	=109	=109	=109	=109	=109
!	!	!	!	!LO:S:s=1:note:problem=note-level slur	!	!	!
8C\L	.	4c\)	.	4e-X/) 4G/]	.	1eee-X\	.
8C\	.	.	.	.	.	.	.
8E-X\	.	4r	.	4r	.	.	.
8G\J	.	.	.	.	.	.	.
4c\	.	2r	.	2r	.	.	.
4C\	.	.	.	.	.	.	.
=110	=110	=110	=110	=110	=110	=110	=110
!	!	!	!LO:MO:null:mod=!LO&colon;DY&colon;ed=brack	!	!	!	!
!	!	!	!LO:MO:null:mod=fz	!	!	!	!
2BB-/	.	[>1e-X\	.	(>1g/	fz	8ddd-X\L	.
.	.	.	.	.	.	8ccc\	.
.	.	.	.	.	.	8bb-\	.
.	.	.	.	.	.	8aa-X\J	.
2E-X\	.	.	.	.	.	8gg\L	.
.	.	.	.	.	.	8ff\	.
.	.	.	.	.	.	8ee-X\	.
!	!	!	!	!	!	!LO:TX:a:t=P:problem=w źródle bemol dopisany ołówkiem nad nutą	!
!	!	!	!	!	!	!LO:SIC:v:s=8dd-J	!
.	.	.	.	.	.	8dd\J	.
=111	=111	=111	=111	=111	=111	=111	=111
8AA-X/L	.	4e-\]	.	4a-X/)	.	2cc\	.
8AA-/	.	.	.	.	.	.	.
8C/	.	4r	.	4r	.	.	.
8E-X/J	.	.	.	.	.	.	.
4A-X\	.	2r	.	2r	.	2ccc\	.
4AA-/	.	.	.	.	.	.	.
!!LO:LB:g=original
=112	=112	=112	=112	=112	=112	=112	=112
!	!	!	!LO:MO:null:mod=!LO&colon;DY&colon;ed=brack	!	!LO:MO:null:mod=!LO&colon;DY&colon;ed=brack	!	!
!	!	!	!LO:MO:null:mod=fz	!	!LO:MO:null:mod=fz	!	!
2GG/	.	[>1c\	.	(>1e/	.	8bb-\L	.
.	.	.	.	.	.	8aa-X\	.
.	.	.	.	.	.	8gg\	.
.	.	.	.	.	.	8ff\J	.
2C/	.	.	.	.	.	8een\L	.
.	.	.	.	.	.	8dd-X\	.
.	.	.	.	.	.	8cc\	.
.	.	.	.	.	.	8b-\J	.
=113	=113	=113	=113	=113	=113	=113	=113
8FF/L	.	4c\]	.	4f/)	.	2a-X\	.
8FF/	.	.	.	.	.	.	.
8AA-X/	.	4r	.	4r	.	.	.
8C/J	.	.	.	.	.	.	.
4F\	.	2r	.	2r	.	2aa-X\	.
4FF/	.	.	.	.	.	.	.
=114	=114	=114	=114	=114	=114	=114	=114
!	!	!LO:TX:b:Bi:t=decres_:problem=dynamics with extention lines:mod=	!	!LO:TX:b:Bi:t=decres_:problem=dynamics with extention lines:mod=	!	!LO:TX:b:Bi:t=decres&colon;_:problem=dynamics with extention lines:mod=	!
!	!LO:MO:null:mod=>	!	!LO:HP:b:Bi:t=decres:ext=ud	!	!LO:HP:b:Bi:t=decres:ext=ud	!	!LO:HP:b:Bi:t=decres&colon;:ext=ud
2EE-X/	.	[>1A-X/	>	(>1c/	>	8gg-X\L	>
.	.	.	.	.	.	8ff\	.
!	!	!	!	!	!	!LO:SIC:v:s=8ee-	!
.	.	.	.	.	.	8ee\	.
.	.	.	.	.	.	8dd-X\J	.
2AA-X/	.	.	.	.	.	8cc\L	.
.	.	.	.	.	.	8b-\	.
!	!	!	!	!	!	!LO:SIC:v:s=8a-	!
.	.	.	.	.	.	8a\	.
!	!	!	!	!	!	!	!LO:MO:null:mod=.
.	.	.	.	.	.	8g-X\J	]
=115	=115	=115	=115	=115	=115	=115	=115
!	!LO:MO:null:mod=!LO&colon;DY&colon;ed=brack	!	!	!	!	!	!
!	!LO:MO:null:mod=] p	!	!	!	!	!	!LO:MO:mod=] p
8DD-X/L	.	4A-/]	] p	4d-X/)	] p	4f/	p
8DD-/	.	.	.	.	.	.	.
8FF/	.	4d-X\	.	4f/	.	4r	.
8AA-X/J	.	.	.	.	.	.	.
4D-X\	.	4d-\	.	4f/	.	8r	.
.	.	.	.	.	.	8f\L	.
4r	.	4d-\	.	4f/	.	8a-X\	.
.	.	.	.	.	.	8dd-X\J	.
=116	=116	=116	=116	=116	=116	=116	=116
!	!	!	!	!	!	!LO:MO:mod=!LO&colon;TX&colon;i&colon;t=espress.	!
!	!	!	!	!	!	!LO:TX:b:Bi:t=espres&colon;	!
1r	.	4d-X\	.	4f/	.	(>2ff\	.
.	.	4d-\	.	4f/	.	.	.
.	.	4d-\	.	4f/	.	4ee-X\	.
.	.	4d-\	.	4f/	.	4dd-X\)	.
=117	=117	=117	=117	=117	=117	=117	=117
*	*	*rep	*	*rep	*	*	*
1r	.	4d-X\	.	4f/	.	4dd-X\	.
.	.	4d-\	.	4f/	.	4cc\	.
.	.	4d-\	.	4f/	.	4b-\	.
.	.	4d-\	.	4f/	.	4a-X\	.
*	*	*Xrep	*	*Xrep	*	*	*
=118	=118	=118	=118	=118	=118	=118	=118
*	*	*rep	*	*	*	*	*
1r	.	4d-X\	.	4f-X/	.	(<1g/T>	.
.	.	4d-\	.	4f-/	.	.	.
.	.	4d-\	.	4e-X/	.	.	.
.	.	4d-\	.	4e-/	.	.	.
*	*	*Xrep	*	*	*	*	*
.	.	.	.	.	.	16qqf/LL	.
.	.	.	.	.	.	16qqg/JJ)	.
=119	=119	=119	=119	=119	=119	=119	=119
8r	.	4c\	.	4e-X/	.	4a-X/	.
8CC/L	.	.	.	.	.	.	.
8EE-X/	.	4c\	.	4r	.	4e-X'</	.
8AA-X/J	.	.	.	.	.	.	.
4C\	.	4c\	.	8r	.	4e-'</	.
.	.	.	.	8e-\L	.	.	.
4r	.	4c\	.	8g-X\	.	4e-'</	.
.	.	.	.	8cc\J	.	.	.
=120	=120	=120	=120	=120	=120	=120	=120
*	*	*rep	*	*	*	*	*
!	!	!	!	!LO:MO:mod=!LO&colon;TX&colon;i&colon;t=espress.	!	!	!
!	!	!	!	!LO:TX:b:Bi:t=espres&colon;:rj	!	!	!
1r	.	4c\	.	(>2ee-X\	.	4e-X'</	.
.	.	4c\	.	.	.	4e-'</	.
.	.	4c\	.	4dd-X\	.	4e-'</	.
.	.	4c\	.	4cc\)	.	4e-'</	.
*	*	*Xrep	*	*	*	*	*
=121	=121	=121	=121	=121	=121	=121	=121
*	*	*rep	*	*	*	*rep	*
1r	.	4c\	.	4cc\	.	4e-X'</	.
.	.	4c\	.	4b-\	.	4e-'</	.
.	.	4c\	.	4a-X/	.	4e-'</	.
.	.	4c\	.	4g/	.	4e-'</	.
*	*	*Xrep	*	*	*	*Xrep	*
=122	=122	=122	=122	=122	=122	=122	=122
*	*	*rep	*	*	*	*	*
1r	.	4c\	.	(<1f#X/t>	.	4e-X/	.
.	.	4c\	.	.	.	4e-/	.
.	.	4c\	.	.	.	4d/	.
.	.	4c\	.	.	.	4d/	.
*	*	*Xrep	*	*	*	*	*
.	.	.	.	16qqe/LL	.	.	.
.	.	.	.	16qqf#/JJ)	.	.	.
!!LO:PB:g=original
=123	=123	=123	=123	=123	=123	=123	=123
8r	.	4B-/	.	4g/	.	4d/	.
8BB-\L	.	.	.	.	.	.	.
8D\	.	4r	.	4B-/	.	4d/	.
8G\J	.	.	.	.	.	.	.
4B-\	.	8r	.	4B-/	.	4d/	.
.	.	8d\L	.	.	.	.	.
4r	.	8g\	.	4B-/	.	4d/	.
.	.	8b-\J	.	.	.	.	.
=124	=124	=124	=124	=124	=124	=124	=124
!	!	!LO:MO:mod=!LO&colon;TX&colon;i&colon;t=espress.	!	!	!	!	!
!	!	!LO:TX:b:Bi:t=espreſ&colon;	!	!	!	!	!
*	*	*	*	*	*	*rep	*
1r	.	(>2dd\	.	4B-/	.	4d/	.
.	.	.	.	4B-/	.	4d/	.
.	.	4cc\	.	4B-/	.	4d/	.
.	.	4b-\)	.	4B-/	.	4d/	.
*	*	*	*	*	*	*Xrep	*
=125	=125	=125	=125	=125	=125	=125	=125
*	*	*	*	*rep	*	*rep	*
1r	.	4b-'>\	.	4B-/	.	4d/	.
.	.	4a'>\	.	4B-/	.	4d/	.
.	.	4g'>\	.	4B-/	.	4d/	.
.	.	4f'>\	.	4B-/	.	4d/	.
*	*	*	*	*Xrep	*	*Xrep	*
=126	=126	=126	=126	=126	=126	=126	=126
*	*	*	*	*rep	*	*	*
1r	.	1e\t>	.	4B-/	.	4d-X/	.
.	.	.	.	4B-/	.	4d-/	.
.	.	.	.	4B-/	.	4c/	.
.	.	.	.	4B-/	.	4c/	.
*	*	*	*	*Xrep	*	*	*
.	.	16qqd/LL	.	.	.	.	.
.	.	16qqe/JJ	.	.	.	.	.
=127	=127	=127	=127	=127	=127	=127	=127
8r	.	4f\	f	4A-X/	f	4c/	f
!	!LO:MO:null:mod=!LO&colon;DY&colon;ed=brack	!	!	!	!	!	!
!LO:MO:null:mod=!LO&colon;TX&colon;i&colon;t=fuoco	!	!	!	!	!	!	!
!	!LO:MO:null:mod=f	!	!	!	!	!	!
8AA-X/L	.	.	.	.	.	.	.
8C/	.	4r	.	4r	.	4r	.
8F/J	.	.	.	.	.	.	.
!	!	!LO:MO:mod=!LO&colon;TX&colon;i&colon;t=fuoco	!	!LO:MO:mod=!LO&colon;TX&colon;i&colon;t=fuoco	!	!LO:MO:mod=!LO&colon;TX&colon;i&colon;t=fuoco	!
!	!	!LO:TX:b:Bi:t=fuoco	!	!LO:TX:b:Bi:t=fuoco	!	!LO:TX:b:Bi:t=fuoco	!
4A-X\	.	[>2c\	.	2f/	.	8r	.
.	.	.	.	.	.	8cc\L	.
4r	.	.	.	.	.	8ff\	.
!	!	!	!	!	!	!LO:SIC:v:s=8aa-J	!
.	.	.	.	.	.	8aa\J	.
=128	=128	=128	=128	=128	=128	=128	=128
8r	.	1c\_>	.	1g/	.	4gg\	.
8EEn/L	.	.	.	.	.	.	.
8GG/	.	.	.	.	.	4r	.
8C/J	.	.	.	.	.	.	.
4E\	.	.	.	.	.	8r	.
.	.	.	.	.	.	8cc\L	.
4r	.	.	.	.	.	8gg\	.
.	.	.	.	.	.	8bb-\J	.
=129	=129	=129	=129	=129	=129	=129	=129
8r	.	1c\]	.	1a-X/	.	4aa-X\	.
8FF/L	.	.	.	.	.	.	.
8AA-X/	.	.	.	.	.	4r	.
8C/J	.	.	.	.	.	.	.
4F\	.	.	.	.	.	8r	.
.	.	.	.	.	.	8ff\L	.
4r	.	.	.	.	.	8aa-\	.
.	.	.	.	.	.	8ccc\J	.
=130	=130	=130	=130	=130	=130	=130	=130
8r	.	[>1e-X\	.	1b-\	.	4bb-\	.
8GG/L	.	.	.	.	.	.	.
8BB-/	.	.	.	.	.	4r	.
8E-X/J	.	.	.	.	.	.	.
4G\	.	.	.	.	.	8r	.
.	.	.	.	.	.	8ee-X\L	.
4r	.	.	.	.	.	8bb-\	.
.	.	.	.	.	.	8eee-X\J	.
=131	=131	=131	=131	=131	=131	=131	=131
8r	.	4e-\]	fp	4cc\	fp	4ccc\	.
!LO:SIC:v:s=8AA-L	!	!	!	!	!	!	!
8GG/L	p	.	.	.	.	.	.
!LO:SIC:v:s=8C	!	!	!	!	!	!	!
8BB-X/	.	4c\	.	4e-X/	.	4r	.
8E-X/J	.	.	.	.	.	.	.
4A-X\	.	4c\	.	4e-/	.	8r	.
.	.	.	.	.	.	8cc\L	p
4A-\	.	4c\	.	4e-/	.	8ee-X\	.
.	.	.	.	.	.	8aa-X\J	.
=132	=132	=132	=132	=132	=132	=132	=132
!	!	!	!	!	!	!LO:MO:mod=!LO&colon;TX&colon;i&colon;t=espress.	!
!	!	!	!	!	!	!LO:TX:b:Bi:t=espreſ&colon;	!
4A-X\	.	4c\	.	4e-X/	.	(>2ccc\	.
4A-\	.	4c\	.	4e-/	.	.	.
4A-\	.	4c\	.	4e-/	.	4bb-\	.
4A-\	.	4c\	.	4e-/	.	4aa-X\)	.
=133	=133	=133	=133	=133	=133	=133	=133
*rep	*	*rep	*	*	*	*	*
!	!	!	!	!	!	!LO:SIC:v:s=(>4aa-'>\	!
4A-X\	.	4c\	.	4e-X/	.	(>4aa'>\	.
4A-\	.	4c\	.	4en/	.	4gg'>\	.
4A-\	.	4c\	.	4f/	.	4ff'>\	.
4A-\	.	4c\	.	4f/	.	4ee-X'>\)	.
*Xrep	*	*Xrep	*	*	*	*	*
=134	=134	=134	=134	=134	=134	=134	=134
*rep	*	*	*	*	*	*	*
4A-X\	.	4c-X\	.	4f/	.	1dd\T>	.
4A-\	.	4c-\	.	4f/	.	.	.
4A-\	.	4B-\	.	4f/	.	.	.
4A-\	.	4B-\	.	4f/	.	.	.
*Xrep	*	*	*	*	*	*	*
.	.	.	.	.	.	16qqcc/LL	.
.	.	.	.	.	.	16qqdd/JJ	.
!!LO:LB:g=original
=135	=135	=135	=135	=135	=135	=135	=135
!LO:TX:t=P:problem=mixed beam	!	!	!	!	!	!	!
8G\L	.	4B-\	.	4e-X/	.	4ee-X\	.
8GG/	.	.	.	.	.	.	.
8BB-/	.	4B-\	.	4r	.	4e-X/	.
8E-X/J	.	.	.	.	.	.	.
4G\	.	4B-\	.	8r	.	4e-/	.
.	.	.	.	8b-\L	.	.	.
4G\	.	4B-\	.	8ee-X\	.	4e-/	.
.	.	.	.	8gg\J	.	.	.
=136	=136	=136	=136	=136	=136	=136	=136
*	*	*rep	*	*	*	*	*
!	!	!	!	!LO:MO:mod=!LO&colon;TX&colon;i&colon;t=espress.	!	!	!
!	!	!	!	!LO:TX:b:Bi:t=espreſ&colon;	!	!	!
!	!	!	!	!LO:SIC:s=(2bb-	!	!	!
4G\	.	4B-\	.	2bb-\	.	4e-X/	.
4G\	.	4B-\	.	.	.	4e-/	.
!	!	!	!	!LO:SIC:s=4aa-	!	!	!
4G\	.	4B-\	.	(>4aa-X\	.	4e-/	.
4G\	.	4B-\	.	4gg\)	.	4e-/	.
*	*	*Xrep	*	*	*	*	*
=137	=137	=137	=137	=137	=137	=137	=137
*rep	*	*rep	*	*	*	*rep	*
4G\	.	4B-\	.	(>4gg'>\	.	4e-X/	.
4G\	.	4B-\	.	4ff'>\	.	4e-/	.
4G\	.	4B-\	.	4ee-X'>\	.	4e-/	.
4G\	.	4B-\	.	4dd'>\)	.	4e-/	.
*Xrep	*	*Xrep	*	*	*	*Xrep	*
=138	=138	=138	=138	=138	=138	=138	=138
*rep	*	*rep	*	*	*	*	*
4G\	.	4B-\	.	1cc#X\t>	.	4en/	.
4G\	.	4B-\	.	.	.	4e/	.
4G\	.	4B-\	.	.	.	4e/	.
4G\	.	4B-\	.	.	.	4e/	.
*Xrep	*	*Xrep	*	*	*	*	*
.	.	.	.	16qqbn/LL	.	.	.
.	.	.	.	16qqcc#/JJ	.	.	.
=139	=139	=139	=139	=139	=139	=139	=139
!LO:TX:t=P:problem=mixed beam	!	!	!	!	!	!LO:TX:t=P:problem=w źródle przepełniona miara taktu [pomyłka skryptora]	!
8F\L	.	4A/	.	4dd\	.	4d/	.
8FF/	.	.	.	.	.	.	.
8AA/	.	4r	.	4r	.	4d/ 4A/	.
8D/J	.	.	.	.	.	.	.
4F\	.	8r	.	2r	.	4d/ 4A/	.
.	.	8A\L	.	.	.	.	.
4F\	.	8d\	.	.	.	4d/ 4A/	.
.	.	8f\J	.	.	.	.	.
=140	=140	=140	=140	=140	=140	=140	=140
!	!	!	!	!	!	!LO:TX:b:Bi:t=cres_:problem=dynamics with extention lines:mod=	!
!	!	!	!	!	!	!	!LO:HP:b:Bi:t=cres:ext=ud
!	!	!	!	!LO:TX:b:Bi:t=cres_:problem=dynamics with extention lines:mod=	!	!	!
!	!	!	!	!	!LO:HP:b:Bi:t=cres:ext=ud	!	!
!	!	!LO:TX:b:Bi:t=cres_:problem=dynamics with extention lines:mod=	!	!	!	!	!
!	!LO:MO:null:mod=<	!	!LO:HP:b:Bi:t=cres:ext=ud	!	!LO:MO:null:mod=.	!	!
4F\	.	(>2a\	<	1r	<	4d/ 4A/	<
4F\	.	.	.	.	.	4d/ 4A/	.
4F\	.	4g\	.	.	.	4d/ 4A/	.
4F\	.	4f\)	.	.	.	4d/ 4A/	.
=141	=141	=141	=141	=141	=141	=141	=141
!LO:TX:t=P:problem=mixed beam	!	!	!	!	!	!	!
8F\L	.	4f\	.	2r	.	4d/ 4A/	.
8DD/	.	.	.	.	.	.	.
8FF/	.	4d\	.	.	.	4f/ 4A/	.
8AA/J	.	.	.	.	.	.	.
4D\	.	4d\	.	8r	.	4f/ 4A/	.
!	!	!	!	!	!LO:MO:null:mod=<	!	!
.	.	.	.	8f\L	.	.	.
4D\	.	4d\	.	8a\	.	4f/ 4A/	.
.	.	.	.	8dd\J	.	.	.
=142	=142	=142	=142	=142	=142	=142	=142
4D\	.	4d\	.	(>2ff\	.	4f/ 4A/	.
4D\	.	4d\	.	.	.	4f/ 4A/	.
!	!	!	!LO:MO:null:mod=.	!	!	!	!
4D\	.	4d\	[	4ee\	.	4f/ 4A/	.
!	!LO:MO:null:mod=[[	!	!LO:MO:null:mod=[[	!	!	!	!
4D\	.	4d\	.	4dd\)	[[	4f/ 4A/	[[
=143	=143	=143	=143	=143	=143	=143	=143
!	!LO:MO:null:mod=!LO&colon;DY&colon;ed=brack	!	!	!	!	!	!
!	!LO:MO:null:mod=f	!	!	!	!	!	!
8BB-/L	.	4d\	f	4dd\	f	4f/ 4B-/	f
8BB-/	.	.	.	.	.	.	.
8D/	.	4r	.	4r	.	4r	.
8F/J	.	.	.	.	.	.	.
[>2B-\	.	2r	.	2r	.	8r	.
.	.	.	.	.	.	8dd\L	.
.	.	.	.	.	.	8ff\	.
.	.	.	.	.	.	8bb-\J	.
=144	=144	=144	=144	=144	=144	=144	=144
1B-\]	.	1r	.	1r	.	(>2ddd^<\	.
.	.	.	.	.	.	4ccc\	.
.	.	.	.	.	.	4bb-\)	.
=145	=145	=145	=145	=145	=145	=145	=145
[>1BB-/	fz	(>[>1F/	fz	[>1d/	fz	(>2bb-\	>
.	.	.	.	.	.	2aa\)	]]
=146	=146	=146	=146	=146	=146	=146	=146
!	!	!	!	!	!	!LO:TX:a:t=P:problem=w źródle 1gg wygląda trochę jak półnuta	!
!	!LO:MO:null:mod=>	!	!	!	!LO:HP:b:Bi:t=dimi&colon;	!	!
1BB-/]	.	4F/]	>	1d/]	>	(>1gg#X\t>	>
.	.	4F/	.	.	.	.	.
.	.	4E/	.	.	.	.	.
.	.	4D/	.	.	.	.	.
.	.	.	.	.	.	16qqff#X/LL	.
.	.	.	.	.	.	16qqgg#/JJ	.
=147	=147	=147	=147	=147	=147	=147	=147
!	!LO:MO:null:mod=!LO&colon;DY&colon;ed=brack	!	!LO:MO:null:mod=!LO&colon;DY&colon;ed=brack	!	!	!	!LO:MO:null:mod=!LO&colon;DY&colon;ed=brack
!	!LO:MO:null:mod=p	!LO:SIC:s=4E)	!LO:MO:null:mod=p	!	!	!	!LO:MO:null:mod=p
8AA/L	.	4E/	.	4c#X/	p	4aa\)	.
8AA/	.	.	.	.	.	.	.
8C#X/	.	4r	.	4r	.	4r	.
8E/J	.	.	.	.	.	.	.
!	!	!LO:SIC:s=2r	!	!	!	!	!
[>2A\	.	2r)	.	2r	.	8r	.
.	.	.	.	.	.	8a\L	.
.	.	.	.	.	.	8cc#X\	.
.	.	.	.	.	.	8ee\J	.
!!LO:LB:g=original
=148	=148	=148	=148	=148	=148	=148	=148
1A\_>	.	4r	.	4r	.	(>2aa\	.
.	.	(>4e\	.	(>4cc#X\	.	.	.
.	.	4f\	.	4dd\	.	4gg#X\	.
.	.	4b-\	.	4ee\	.	4ggn\)	.
=149	=149	=149	=149	=149	=149	=149	=149
1A\_>	.	4a\)	.	2dd\	.	(>2ff\	.
.	.	(>4a\	.	.	.	.	.
.	.	4g\	.	4b-\)	.	4ee\	.
.	.	4f\	.	(>[>4a\	.	4dd\)	.
=150	=150	=150	=150	=150	=150	=150	=150
1A\_>	.	4e\	.	2a/]	.	4cc#X\	.
.	.	&(>2.f\	.	.	.	(>2.dd\	.
.	.	.	.	4b-/	.	.	.
.	.	.	.	8a/L	.	.	.
.	.	.	.	8g#X/J	.	.	.
=151	=151	=151	=151	=151	=151	=151	=151
8A\L]	.	4e\&))	.	4a/)	.	4cc#X\)	.
8A\	f	.	.	.	.	.	.
8E\	.	4r	.	4r	.	4r	.
8C#X\J	.	.	.	.	.	.	.
[<2AA/	.	2r	.	2r	.	8r	.
.	.	.	.	.	.	8A/L	f
.	.	.	.	.	.	8c#X/	.
.	.	.	.	.	.	8e/J	.
=152	=152	=152	=152	=152	=152	=152	=152
1AA/_>	.	1r	.	4r	.	(>2a\	.
.	.	.	.	(<4a/	f	.	.
.	.	.	.	4g#X/	.	4bn\	.
.	.	.	.	4gn/	.	4cc#X\	.
=153	=153	=153	=153	=153	=153	=153	=153
1AA/_>	.	2r	.	2f/	.	4dd\	.
.	.	.	.	.	.	4a\	.
.	.	4r	.	2e/)	.	2g/	.
!	!	!LO:MO:mod=!null:null	!	!	!	!	!
!	!	!LO:N:vis=4.	!	!	!	!	!
!	!	!	!LO:DY:b:rj	!	!	!	!
.	.	(>4C#X/	f	.	.	.	.
=154	=154	=154	=154	=154	=154	=154	=154
!	!LO:MO:null:mod=>	!	!	!	!	!	!
1AA/_>	.	4D/	>	(<1d/	>	(<1f/)	>
.	.	4F/	.	.	.	.	.
.	.	4B-/	.	.	.	.	.
.	.	8A/L	.	.	.	.	.
.	.	8G#X/J)	.	.	.	.	.
=155	=155	=155	=155	=155	=155	=155	=155
8AA/L]	.	4A/	.	4c#X/)	.	4e/	.
8AA/	.	.	.	.	.	.	.
8C#X/	.	4r	.	4r	.	4r	.
8E/J	.	.	.	.	.	.	.
!	!LO:MO:null:mod=!LO&colon;DY&colon;ed=brack	!	!	!	!	!	!
!	!LO:MO:null:mod=p	!	!LO:DY:b:rj	!	!	!	!
4A\	.	(>2c#X\	p	(>2e/	p	(>2a/)	p
[<4AA/	.	.	.	.	.	.	.
=156	=156	=156	=156	=156	=156	=156	=156
!	!	!LO:SIC:s=1d^	!	!LO:TX:a:t=P:problem=diminuendolike accent	!	!LO:TX:a:t=P:problem=diminuendolike accent	!
4AA/]	.	1d\	.	1f/^<	.	1b-\^<	.
4GG/	.	.	.	.	.	.	.
4G\	.	.	.	.	.	.	.
4GG/	.	.	.	.	.	.	.
=157	=157	=157	=157	=157	=157	=157	=157
2AA/	.	4c#X\)	.	4e/)	.	8a/L)	.
.	.	.	.	.	.	8A/	.
.	.	4r	.	4r	.	8c#X/	.
.	.	.	.	.	.	8e/J	.
8A/L	.	(>2c#\	.	2e/	.	2a/	.
8E/	.	.	.	.	.	.	.
8C#X/	.	.	.	.	.	.	.
[<8AA/J	.	.	.	.	.	.	.
=158	=158	=158	=158	=158	=158	=158	=158
!	!	!	!	!LO:TX:a:t=P:problem=diminuendolike accent	!	!LO:TX:a:t=P:problem=diminuendolike accent	!
!	!	!LO:TX:a:t=P:problem=diminuendolike accent	!	!	!	!	!
!	!LO:HP:a	!	!LO:MO:null:mod=>	!	!LO:MO:null:mod=>	!	!LO:MO:null:mod=>
8AA/L]	>	1d\^<)	.	1f/^<	.	(>1bn\^<	.
8GG#X/	.	.	.	.	.	.	.
8BBn/	.	.	.	.	.	.	.
!	!LO:MO:null:mod=.	!	!	!	!	!	!
8D/J	]	.	.	.	.	.	.
4F\	.	.	.	.	.	.	.
!	!LO:MO:null:mod=]]	!	!LO:MO:null:mod=]]	!	!LO:MO:null:mod=]]	!	!LO:MO:null:mod=]]
4GG#/	.	.	.	.	.	.	.
=159	=159	=159	=159	=159	=159	=159	=159
!	!LO:MO:null:mod=!LO&colon;DY&colon;ed=brack	!	!	!	!	!	!
!	!LO:MO:null:mod=p	!	!	!	!	!	!
[<2AA/	.	(>2c#X\	p	(<2e/	p	8a/L)	.
.	.	.	.	.	.	8A/	p
.	.	.	.	.	.	8c#X/	.
.	.	.	.	.	.	8e/J	.
8AA/L]	.	2d\	.	2f/	.	[<2a/	.
8AA/	.	.	.	.	.	.	.
8D/	.	.	.	.	.	.	.
8F/J	.	.	.	.	.	.	.
=160	=160	=160	=160	=160	=160	=160	=160
[>2A\	.	2c#X\	.	2e/	.	8a/L]	.
.	.	.	.	.	.	8A/	.
.	.	.	.	.	.	8c#X/	.
.	.	.	.	.	.	8e/J	.
8A\L]	.	2d\)	.	2f/)	.	[>2a/	.
8A\	.	.	.	.	.	.	.
8F\	.	.	.	.	.	.	.
8D\J	.	.	.	.	.	.	.
=161	=161	=161	=161	=161	=161	=161	=161
!	!	!	!	!	!	!LO:TX:b:Bi:t=cres_:problem=dynamics with extention lines:mod=	!
!	!	!	!	!	!	!	!LO:HP:b:Bi:t=cres:ext=ud
!	!	!	!	!LO:TX:b:Bi:t=cres_:problem=dynamics with extention lines:mod=	!	!	!
!	!	!	!	!	!LO:HP:b:Bi:t=cres:ext=ud	!	!
!	!	!LO:TX:b:Bi:t=cres_:problem=dynamics with extention lines:mod=	!	!	!	!	!
!	!LO:MO:null:mod=<	!	!LO:HP:b:Bi:t=cres:ext=ud	!	!	!	!
[>1AA/	.	[>1c#X\	<	[>1e/	<	8a/L]	<
.	.	.	.	.	.	8A/	.
.	.	.	.	.	.	8c#X/	.
.	.	.	.	.	.	8e/J	.
.	.	.	.	.	.	8a/L	.
!	!	!	!	!	!	!LO:SIC:v:s=8c#	!
.	.	.	.	.	.	8d/	.
.	.	.	.	.	.	8e/	.
.	.	.	.	.	.	8a/J	.
!!LO:LB:g=original
=162	=162	=162	=162	=162	=162	=162	=162
1AA/_>	.	1c#\_>	.	1e/_>	.	8cc#X\L	.
.	.	.	.	.	.	8e\	.
.	.	.	.	.	.	8a\	.
.	.	.	.	.	.	8cc#\J	.
.	.	.	.	.	.	8ee\L	.
.	.	.	.	.	.	8a\	.
.	.	.	.	.	.	8cc#\	.
!	!LO:MO:null:mod=[[	!	!	!	!	!	!
.	.	.	[[	.	[[	8ee\J	[[
=163	=163	=163	=163	=163	=163	=163	=163
!	!LO:MO:null:mod=!LO&colon;DY&colon;ed=brack	!	!	!	!	!	!
!	!LO:MO:null:mod=f	!	!	!	!	!	!
4AA/]	.	4c#\]	f	4e/]	f	4aa\	f
4r	.	4r	.	4r	.	4r	.
!	!	!	!	!	!LO:MO:null:mod=!LO&colon;DY&colon;ed=brack	!	!
!	!	!	!	!	!LO:MO:null:mod=sf	!	!LO:MO:mod=sf
4AA/	sf	4e/ 4A/	sf	4aa\ 4cc#X\ 4e\	.	4aaa\	f
4r	.	4r	.	4r	.	4r	.
=164	=164	=164	=164	=164	=164	=164	=164
!	!	!	!	!	!	!LO:TX:a:Bi:t=1:mod=	!
1r;>	.	1r;>	.	1r;>	.	1r;>	.
=165	=165	=165	=165	=165	=165	=165	=165
!	!LO:MO:null:mod=!LO&colon;DY&colon;ed=brack	!	!	!	!	!	!
!	!LO:MO:null:mod=pp	!LO:TX:a:Bi:t=Col 1mo:mod=	!	!LO:TX:a:Bi:t=Col 1mo Uniſono:mod=	!	!	!
(>2F\	.	(<2f\yy	pp	(<2f/yy	pp	(<2f/	pp
4E\	.	4e\yy	.	4e/yy	.	4e/	.
4D\)	.	4d\yy	.	4d/yy	.	4d/	.
=166	=166	=166	=166	=166	=166	=166	=166
2E\	.	2e\)yy	.	2e/)yy	.	2e/)	.
2r	.	2ryy	.	2ryy	.	2r	.
=167	=167	=167	=167	=167	=167	=167	=167
(<2D/	.	(<2d\yy	.	(<2d/yy	.	(<2d/	.
4C/	.	4c\yy	.	4c/yy	.	4c/	.
4BB-/	.	4B-/yy	.	4B-/yy	.	4B-/	.
=168	=168	=168	=168	=168	=168	=168	=168
2C/)	.	2c\)yy	.	2c/)yy	.	2c/)	.
2r	.	2ryy	.	2ryy	.	2r	.
=169	=169	=169	=169	=169	=169	=169	=169
1r	.	(<2B-/	f	1r	.	1r	.
.	.	4A/)	.	.	.	.	.
.	.	4G'</	.	.	.	.	.
=170	=170	=170	=170	=170	=170	=170	=170
!	!	!	!LO:HP:b:Bi:t=dim&colon;	!	!	!	!
1r	.	4A'</	>	1r	.	1r	.
.	.	4G'</	.	.	.	.	.
.	.	4F'</	.	.	.	.	.
.	.	4E'</	.	.	.	.	.
=171	=171	=171	=171	=171	=171	=171	=171
!!LO:TX:t=ritard.
!	!	!	!LO:MO:null:mod=!LO&colon;DY&colon;ed=brack	!	!	!LO:TX:b:Bi:t=ritar:dur=6q:ext=ud:problem=text with extention lines:mod=	!
!	!	!LO:TX:b:Bi:t=ritar:dur=8q:ext=ud:problem=text with extention lines:mod=	!	!	!	!	!
!	!	!	!LO:MO:null:mod=p	!	!	!	!
(>2D\	p	(<1D/	.	4r	.	(>2f/	p
.	.	.	.	(<2.d^>/	p	.	.
4C\	.	.	.	.	.	4g/	.
4BB-\	.	.	.	.	.	4g#X/	.
=172	=172	=172	=172	=172	=172	=172	=172
!	!	!	!	!	!	!LO:SIC:s=2a)	!
2AA/)	.	2E/)	.	2c#X/)	.	2a/	.
!	!	!	!	!	!	!LO:SIC:s=2r	!
2r	.	2r	.	2r	.	2r)	.
=173	=173	=173	=173	=173	=173	=173	=173
!!LO:TX:t=a tempo
!	!	!LO:TX:b:Bi:t=a tempo:mod=	!	!	!	!LO:TX:b:Bi:t=a tempo:mod=	!
2r	.	1r	.	(>1f/	.	2a\	.
(>4D\	.	.	.	.	.	(4b-\	.
4D-X\	.	.	.	.	.	4bn\	.
=174	=174	=174	=174	=174	=174	=174	=174
!	!	!	!	!	!LO:DY:a	!	!
!	!	!	!	!	!LO:MO:null:mod=.	!	!
2C\	.	1r	.	4e/	f	2cc\	.
.	.	.	.	4e/	.	.	.
2F\	.	.	.	4f/	.	2a\	.
.	.	.	.	4e-X/	.	.	.
=175	=175	=175	=175	=175	=175	=175	=175
2BB-/)	.	2r	.	4d/	.	2b-\	.
.	.	.	.	4d-X/	.	.	.
(>2C/	.	(>4f\	.	4c/	.	4a\	.
.	.	[>4e\	.	4B-/	.	4g\	.
=176	=176	=176	=176	=176	=176	=176	=176
4C#X/	.	2e\]	.	1A/)	.	2a/	.
4AA/	.	.	.	.	.	.	.
4D/	.	2d\)	.	.	.	2f/)	.
4FF/)	.	.	.	.	.	.	.
=177	=177	=177	=177	=177	=177	=177	=177
(<2GG/	.	[>1D/	.	(>2B-/	.	(>2e/	.
2GG#X/	.	.	.	2Bn/	.	2f/	.
!!LO:LB:g=original
=178	=178	=178	=178	=178	=178	=178	=178
!LO:TX:a:t=P:problem=w źródle brak zakończenia łuku	!LO:MO:null:mod=<	!	!	!LO:TX:a:t=P:problem=w źródle brak zakończenia łuku	!	!	!
4AA/)	.	2.D/]	<	2.A/)	<	2f#X/	<
4C/	.	.	.	.	.	.	.
4BBn/	.	.	.	.	.	4g/	.
!	!LO:MO:null:mod=[[	!	!	!	!	!	!
4BB-X/	.	(>&(>4E/	[[	(>[<4d/	[[	4g#X/)	[[
=179	=179	=179	=179	=179	=179	=179	=179
!	!LO:MO:null:mod=!LO&colon;DY&colon;ed=brack	!	!	!	!	!	!
!	!	!LO:TX:b:Bi:t=dim_:problem=dynamics with extention lines:mod=	!	!	!	!	!
!	!LO:MO:null:mod=f >	!	!LO:HP:b:Bi:t=dim:ext=ud	!	!	!	!
[<1AA/	.	1F#X/	f >	1d/_<	f >	[>1a/	f >
=180	=180	=180	=180	=180	=180	=180	=180
!	!LO:MO:null:mod=]]	!	!	!	!LO:MO:null:mod=]]	!	!LO:MO:null:mod=]]
1AA/_<	.	1Fn/&)	]]	1d/_<	.	1a/_>	.
=181	=181	=181	=181	=181	=181	=181	=181
!	!LO:MO:null:mod=!LO&colon;DY&colon;ed=brack	!	!	!	!	!	!
!	!LO:MO:null:mod=p	!	!	!	!	!	!
1AA/_<	.	&(>[>1E/	p	2d/]	p	1a/_>	p
.	.	.	.	4c#X/	.	.	.
.	.	.	.	4Bn/	.	.	.
=182	=182	=182	=182	=182	=182	=182	=182
!	!	!	!	!LO:TX:a:t=P:problem=W źródle łuk kończy się za nutą	!	!	!
!	!	!	!	!LO:SIC:v:s=2c#/)	!	!	!
1AA/]	.	2E/]	.	2c/)	.	1a/]	.
.	.	4F#X/	.	2ryy	.	.	.
.	.	4G/	.	.	.	.	.
=183||	=183||	=183||	=183||	=183||	=183||	=183||	=183||
*>C	*	*>C	*	*>C	*	*>C	*
*k[bnf#c#]	*	*k[bnf#c#]	*	*k[bnf#c#]	*	*k[bnf#c#]	*
*mk[f#c#]	*	*mk[f#c#]	*	*mk[f#c#]	*	*mk[f#c#]	*
(<2D/	.	8F#/L&))	.	8d/L	.	4d/	.
.	.	8A/	.	8f#/	.	.	.
.	.	8A/	.	8f#/	.	4r	.
.	.	8A/J	.	8f#/J	.	.	.
*	*	*tremolo	*	*tremolo	*	*	*
4AA/	.	8A/L	.	8f#/L	.	2r	.
.	.	8A/	.	8f#/	.	.	.
4FF#/	.	8A/	.	8f#/	.	.	.
.	.	8A/J	.	8f#/J	.	.	.
=184	=184	=184	=184	=184	=184	=184	=184
!	!	!	!	!	!	!LO:MO:mod=!LO&colon;TX&colon;i&colon;t=dolce	!
!	!	!	!	!	!	!LO:TX:b:Bi:t=dol&colon;	!
2DD/)	.	8d\L	.	8f#/L 8A/	.	(>2ff#^<\	.
.	.	8d\	.	8f#/ 8A/	.	.	.
.	.	8d\	.	8f#/ 8A/	.	.	.
.	.	8d\	.	8f#/J 8A/	.	.	.
2r	.	8d\	.	8f#/L 8A/	.	4ee\	.
.	.	8d\	.	8f#/ 8A/	.	.	.
.	.	8d\	.	8f#/ 8A/	.	4dd\)	.
.	.	8d\J	.	8f#/J 8A/	.	.	.
=185	=185	=185	=185	=185	=185	=185	=185
*	*	*rep	*	*rep	*	*	*
1r	.	8d\L	.	8f#/L 8A/	.	(>2dd^<\	.
.	.	8d\	.	8f#/ 8A/	.	.	.
.	.	8d\	.	8f#/ 8A/	.	.	.
.	.	8d\	.	8f#/J 8A/	.	.	.
.	.	8d\	.	8f#/L 8A/	.	4cc#\	.
.	.	8d\	.	8f#/ 8A/	.	.	.
.	.	8d\	.	8f#/ 8A/	.	4b\)	.
.	.	8d\J	.	8f#/J 8A/	.	.	.
*	*	*Xrep	*	*Xrep	*	*	*
=186	=186	=186	=186	=186	=186	=186	=186
*	*	*rep	*	*rep	*	*	*
1r	.	8d\L	.	8f#/L 8A/	.	(<8a/L	.
.	.	8d\	.	8f#/ 8A/	.	8g#X/	.
.	.	8d\	.	8f#/ 8A/	.	8b/	.
.	.	8d\	.	8f#/J 8A/	.	8a/J	.
.	.	8d\	.	8f#/L 8A/	.	8gn/L	.
.	.	8d\	.	8f#/ 8A/	.	8f#/	.
.	.	8d\	.	8f#/ 8A/	.	8e/	.
.	.	8d\J	.	8f#/J 8A/	.	8d/J)	.
*	*	*Xrep	*	*Xrep	*	*	*
*	*	*Xtremolo	*	*	*	*	*
=187	=187	=187	=187	=187	=187	=187	=187
(<2C#/	.	8A\L	.	8g/L 8A/	.	2e/	.
.	.	8e\	.	8g/ 8A/	.	.	.
.	.	8e\	.	8g/ 8A/	.	.	.
.	.	8e\J	.	8g/ 8A/	.	.	.
*	*	*tremolo	*	*	*	*	*
4AA/	.	8e\L	.	8g/ 8A/	.	2r	.
.	.	8e\	.	8g/ 8A/	.	.	.
4EE/	.	8e\	.	8g/ 8A/	.	.	.
.	.	8e\J	.	8g/J 8A/	.	.	.
=188	=188	=188	=188	=188	=188	=188	=188
*	*	*	*	*rep	*	*	*
2CC#/)	.	8e\L	.	8g/L 8A/	.	(>2gg^<\	.
.	.	8e\	.	8g/ 8A/	.	.	.
.	.	8e\	.	8g/ 8A/	.	.	.
.	.	8e\	.	8g/ 8A/	.	.	.
2r	.	8e\	.	8g/ 8A/	.	4ff#\	.
.	.	8e\	.	8g/ 8A/	.	.	.
.	.	8e\	.	8g/ 8A/	.	4ee\)	.
.	.	8e\J	.	8g/J 8A/	.	.	.
*	*	*	*	*Xrep	*	*	*
=189	=189	=189	=189	=189	=189	=189	=189
*	*	*rep	*	*rep	*	*	*
1r	.	8e\L	.	8g/L 8A/	.	(>2ee^<\	.
.	.	8e\	.	8g/ 8A/	.	.	.
.	.	8e\	.	8g/ 8A/	.	.	.
.	.	8e\	.	8g/ 8A/	.	.	.
.	.	8e\	.	8g/ 8A/	.	4dd\	.
.	.	8e\	.	8g/ 8A/	.	.	.
.	.	8e\	.	8g/ 8A/	.	4cc#\)	.
.	.	8e\J	.	8g/J 8A/	.	.	.
*	*	*Xrep	*	*Xrep	*	*	*
=190	=190	=190	=190	=190	=190	=190	=190
*	*	*rep	*	*	*	*	*
1r	.	8e\L	.	8g/L 8A/	.	(>8cc#\L	.
.	.	8e\	.	8g/ 8A/	.	8b\	.
.	.	8e\	.	8g/ 8A/	.	8a\	.
.	.	8e\	.	8g/J 8A/	.	8g#X\J	.
.	.	8e\	.	8e/L 8A/	.	8a\L	.
.	.	8e\	.	8e/ 8A/	.	8a#X\	.
.	.	8e\	.	8e/ 8A/	.	8b\	.
.	.	8e\J	.	8e/J 8A/	.	8gn\J	.
*	*	*Xrep	*	*	*	*	*
*	*	*Xtremolo	*	*Xtremolo	*	*	*
=191	=191	=191	=191	=191	=191	=191	=191
!LO:MO:mod=!LO&colon;TX&colon;i&colon;t=pizz.	!	!	!	!	!	!	!
!LO:TX:b:Bi:t=pizz&colon;	!	!	!	!	!	!	!
!	!	!LO:SIC:v:s=(8dL	!	!	!	!LO:SIC:s=2f#)	!
4D\	.	(>8c#\L	.	(<8f#/L 8A/	.	2f#/	.
.	.	8A\)	.	8a/)	.	.	.
4A\	.	8A'>\	.	8a'</	.	.	.
.	.	8A'>\J	.	8a'</J	.	.	.
*	*	*rep	*	*	*	*	*
!	!	!LO:SIC:v:s=(8dL	!	!	!	!LO:SIC:s=8r	!
4F#\	.	(>8c#\L	.	(<8f#/L	.	8r)	.
.	.	8A\)	.	8a/)	.	8a\L	.
4D\	.	8A'>\	.	8a'</	.	8dd\	.
.	.	8A'>\J	.	8a'</J	.	8ff#\J	.
*	*	*Xrep	*	*	*	*	*
!!LO:PB:g=original
=192	=192	=192	=192	=192	=192	=192	=192
!	!	!LO:SIC:s=(8eL	!	!	!	!	!
4C#/	.	8e/L	.	(<8g/L	.	(>2aa\	.
!	!	!LO:SIC:s=8A)	!	!	!	!	!
.	.	8A/	.	8a/)	.	.	.
!	!	!LO:SIC:s=8A'	!	!	!	!	!
4E/	.	8A/	.	8a'</	.	.	.
!	!	!LO:SIC:s=8A'J	!	!	!	!	!
.	.	8A/J	.	8a'</J	.	.	.
*	*	*rep	*	*rep	*	*	*
!	!	!LO:SIC:s=(8eL	!	!	!	!	!
4C#/	.	8e/L	.	(<8g/L	.	4gg\	.
!	!	!LO:SIC:s=8A)	!	!	!	!	!
.	.	8A/	.	8a/)	.	.	.
!	!	!LO:SIC:s=8A'	!	!	!	!	!
4AA/	.	8A/	.	8a'</	.	4ee\)	.
!	!	!LO:SIC:s=8A'J	!	!	!	!	!
.	.	8A/J	.	8a'</J	.	.	.
*	*	*Xrep	*	*Xrep	*	*	*
=193	=193	=193	=193	=193	=193	=193	=193
4D/	.	(<8d/L	.	(<8f#/L	.	4ff#\	.
.	.	8A/)	.	8a/)	.	.	.
4A/	.	8A'</	.	8a'</	.	4r	.
.	.	8A'</J	.	8a'</J	.	.	.
*	*	*rep	*	*rep	*	*	*
4F#/	.	(<8d/L	.	(<8f#/L	.	8r	.
.	.	8A/)	.	8a/)	.	8a\L	.
4D/	.	8A'</	.	8a'</	.	8dd\	.
.	.	8A'</J	.	8a'</J	.	8ff#\J	.
*	*	*Xrep	*	*Xrep	*	*	*
=194	=194	=194	=194	=194	=194	=194	=194
4C#\	.	(<8e/L	.	(<8g/L	.	(>2aa\	.
.	.	8A/)	.	8a/)	.	.	.
4E\	.	8A'</	.	8a'</	.	.	.
.	.	8A'</J	.	8a'</J	.	.	.
*	*	*rep	*	*rep	*	*	*
4C#/	.	(<8e/L	.	(<8g/L	.	4gg\	.
.	.	8A/)	.	8a/)	.	.	.
4AA/	.	8A'</	.	8a'</	.	4ee\)	.
.	.	8A'</J	.	8a'</J	.	.	.
*	*	*Xrep	*	*Xrep	*	*	*
=195	=195	=195	=195	=195	=195	=195	=195
!	!	!LO:TX:t=P:problem=mixed beam	!	!	!	!	!
4D\	.	8d\L	.	4f#/	.	4ff#\	.
.	.	8D/	f	.	.	.	.
4r	.	8F#/	.	4r	.	4r	.
.	.	8A/J	.	.	.	.	.
2r	.	4d\	.	2r	.	8r	.
.	.	.	.	.	.	8f#/L	f
.	.	4r	.	.	.	8a/	.
.	.	.	.	.	.	8dd/J	.
=196	=196	=196	=196	=196	=196	=196	=196
2r	.	4r	.	4r	.	(>4ff#\	.
.	.	(>4f#\	.	(>4a#X\	f	4ee\	.
4r	.	4B\)	.	4b\)	.	4dd\)	.
!LO:MO:mod=!LO&colon;TX&colon;i&colon;t=arco	!	!	!	!	!	!	!
!LO:TX:a:Bi:t=arco	!	!	!LO:MO:null:mod=sf	!	!	!	!LO:MO:mod=sf
4D#X\	sf	4cn\	.	4f#/	sf	(>[>4aa\	f
=197	=197	=197	=197	=197	=197	=197	=197
(>1E\	.	(>2c#X\	.	(<2e/	.	8aa\L]	.
.	.	.	.	.	.	8gg#X\	.
.	.	.	.	.	.	8ff#\	.
.	.	.	.	.	.	8ee\J	.
.	.	2d\)	.	2g#X/)	.	8dd#X\L	.
.	.	.	.	.	.	8ee\	.
.	.	.	.	.	.	8ddn\	.
.	.	.	.	.	.	8b\J)	.
=198	=198	=198	=198	=198	=198	=198	=198
!	!	!	!	!	!	!LO:SIC:s=4a	!
4AA/)	.	4c#\	.	(<8a/L	.	(>4a\	.
.	.	.	.	8a#X/	.	.	.
4r	.	4r	.	8cc#/	.	4r	.
.	.	.	.	8b/J	.	.	.
!	!	!	!	!	!	!LO:TX:a:t=P:problem=w źródle łuk kończy się na kresce taktowej	!
!	!	!	!	!	!	!LO:SIC:s=2r	!
2r	.	2r	.	8an/L	.	2r)	.
.	.	.	.	8g/	.	.	.
.	.	.	.	8f#/	.	.	.
.	.	.	.	8e/J)	.	.	.
=199	=199	=199	=199	=199	=199	=199	=199
!	!	!LO:MO:mod=!LO&colon;TX&colon;i&colon;t=pizz.	!	!	!	!	!
!	!	!LO:TX:b:Bi:t=pizz&colon;	!	!	!	!	!
1r	.	4A/ 4D/	.	4d/	.	8r	.
.	.	.	.	.	.	8d/L	.
.	.	4A/ 4D/	.	4r	.	8f#/	.
.	.	.	.	.	.	8a/J	.
!	!	!	!	!LO:MO:mod=!LO&colon;TX&colon;i&colon;t=pizz.	!	!	!
!	!	!	!	!LO:TX:b:Bi:t=pizz&colon;	!	!	!
.	.	4A/ 4D/	.	4f#/ 4A/	.	2dd\	.
.	.	4A/ 4D/	.	4f#/ 4A/	.	.	.
=200	=200	=200	=200	=200	=200	=200	=200
*	*	*rep	*	*	*	*	*
!LO:MO:mod=!LO&colon;TX&colon;i&colon;t=dolce	!	!	!	!	!	!	!
!LO:TX:b:Bi:t=dol&colon;	!	!	!	!	!	!	!
!	!LO:DY:b:rj	!	!	!	!	!	!
(>2f#^<\	p	4A/ 4D/	.	4f#/ 4A/	.	8r	.
.	.	.	.	.	.	8f#\L	.
.	.	4A/ 4D/	.	4f#/ 4A/	.	8a\	.
.	.	.	.	.	.	8dd\J	.
4e\	.	4A/ 4D/	.	4f#/ 4A/	.	2ff#\	.
4d\)	.	4A/ 4D/	.	4f#/ 4A/	.	.	.
*	*	*Xrep	*	*	*	*	*
=201	=201	=201	=201	=201	=201	=201	=201
*	*	*rep	*	*rep	*	*	*
(>2d^<\	.	4A/ 4D/	.	4f#/ 4A/	.	8r	.
.	.	.	.	.	.	8a\L	.
.	.	4A/ 4D/	.	4f#/ 4A/	.	8dd\	.
.	.	.	.	.	.	8ff#\J	.
4c#\	.	4A/ 4D/	.	4f#/ 4A/	.	(>2aa\	.
4B\)	.	4A/ 4D/	.	4f#/ 4A/	.	.	.
*	*	*Xrep	*	*Xrep	*	*	*
=202	=202	=202	=202	=202	=202	=202	=202
*	*	*rep	*	*rep	*	*	*
(>8A\L	.	4A/ 4D/	.	4f#/ 4A/	.	4ddd\)	.
8G#X\	.	.	.	.	.	.	.
8B\	.	4A/ 4D/	.	4f#/ 4A/	.	4r	.
8A\J	.	.	.	.	.	.	.
8Gn\L	.	4A/ 4D/	.	4f#/ 4A/	.	2r	.
8F#\	.	.	.	.	.	.	.
8E\	.	4A/ 4D/	.	4f#/ 4A/	.	.	.
8D\J)	.	.	.	.	.	.	.
*	*	*Xrep	*	*Xrep	*	*	*
=203	=203	=203	=203	=203	=203	=203	=203
2E\	.	4A/ 4C#/	.	4g/ 4A/	.	8r	.
.	.	.	.	.	.	8A/L	.
.	.	4A/ 4C#/	.	4g/ 4A/	.	8c#/	.
.	.	.	.	.	.	8e/J	.
2r	.	4A/ 4C#/	.	4g/ 4A/	.	2a\	.
.	.	4A/ 4C#/	.	4g/ 4A/	.	.	.
!!LO:LB:g=original
=204	=204	=204	=204	=204	=204	=204	=204
*	*	*rep	*	*rep	*	*	*
(>2g^<\	.	4A/ 4C#/	.	4g/ 4A/	.	8r	.
.	.	.	.	.	.	8c#/L	.
.	.	4A/ 4C#/	.	4g/ 4A/	.	8e/	.
.	.	.	.	.	.	8a/J	.
4f#\	.	4A/ 4C#/	.	4g/ 4A/	.	2cc#\	.
4e\)	.	4A/ 4C#/	.	4g/ 4A/	.	.	.
*	*	*Xrep	*	*Xrep	*	*	*
=205	=205	=205	=205	=205	=205	=205	=205
*	*	*rep	*	*rep	*	*	*
(>2e^<\	.	4A/ 4C#/	.	4g/ 4A/	.	8r	.
.	.	.	.	.	.	8e\L	.
.	.	4A/ 4C#/	.	4g/ 4A/	.	8a\	.
.	.	.	.	.	.	8cc#\J	.
4d\	.	4A/ 4C#/	.	4g/ 4A/	.	(>2ee\	.
4c#\)	.	4A/ 4C#/	.	4g/ 4A/	.	.	.
*	*	*Xrep	*	*Xrep	*	*	*
=206	=206	=206	=206	=206	=206	=206	=206
*	*	*rep	*	*rep	*	*	*
(>8c#\L	.	4A/ 4C#/	.	4g/ 4A/	.	4aa\)	.
8B\	.	.	.	.	.	.	.
8A\	.	4A/ 4C#/	.	4g/ 4A/	.	4r	.
8G#X\J	.	.	.	.	.	.	.
8A\L	.	4A/ 4C#/	.	4g/ 4A/	.	2r	.
8A#X\	.	.	.	.	.	.	.
8B\	.	4A/ 4C#/	.	4g/ 4A/	.	.	.
8Gn\J)	.	.	.	.	.	.	.
*	*	*Xrep	*	*Xrep	*	*	*
=207	=207	=207	=207	=207	=207	=207	=207
2F#\	.	4A/ 4D/	.	4f#/ 4A/	.	8r	.
.	.	.	.	.	.	8f#\L	f
.	.	4r	.	4r	.	8a\	.
.	.	.	.	.	.	8dd\J	.
2r	.	8r	.	2r	.	[>2ff#\	.
!	!	!LO:MO:null:mod=!LO&colon;TX&colon;i&colon;t=arco	!	!	!	!	!
.	.	8E/L	f	.	.	.	.
.	.	8F#/	.	.	.	.	.
.	.	8A/J	.	.	.	.	.
=208	=208	=208	=208	=208	=208	=208	=208
2r	.	[>1d\	.	2r	.	(>4ff#\]	.
.	.	.	.	.	.	8ee\L	.
.	.	.	.	.	.	8dd\J	.
!	!	!	!	!LO:MO:null:mod=!LO&colon;TX&colon;i&colon;t=arco	!	!	!
!	!	!	!	!	!LO:DY:b:rj	!	!
(>2F#\	f	.	.	(<2a/	f	8ccn\L	.
.	.	.	.	.	.	8b\	.
.	.	.	.	.	.	8dd\	.
!	!	!	!	!	!	!LO:TX:a:t=P:problem=w źródle łuk kończy się na kresce taktowej	!
.	.	.	.	.	.	8cc\J)	.
=209	=209	=209	=209	=209	=209	=209	=209
1G\	.	1d\_>	.	1g/)	.	(>8b\L	.
.	.	.	.	.	.	8ccn\	.
.	.	.	.	.	.	8b\	.
.	.	.	.	.	.	8a#X\J	.
.	.	.	.	.	.	8b\L	.
.	.	.	.	.	.	8dd\	.
.	.	.	.	.	.	8gg\	.
.	.	.	.	.	.	8bb\J)	.
=210	=210	=210	=210	=210	=210	=210	=210
1G#X\)	fz	1d\_>	fz	(>1e#X/	fz	(>8aa#X\L	.
.	.	.	.	.	.	8bb\	.
.	.	.	.	.	.	8ddd\	.
.	.	.	.	.	.	8ccc#\J	.
.	.	.	.	.	.	8eee\L	.
.	.	.	.	.	.	8ddd\	.
.	.	.	.	.	.	8ccc#\	.
.	.	.	.	.	.	8bb\J)	.
=211	=211	=211	=211	=211	=211	=211	=211
(>1A\	.	1d\]	.	1f#/)	.	(>8aa\L	.
.	.	.	.	.	.	8gg#X\	.
.	.	.	.	.	.	8bb\	.
.	.	.	.	.	.	8aa\J	.
.	.	.	.	.	.	8ggn\L	.
.	.	.	.	.	.	8ff#\	.
.	.	.	.	.	.	8ee\	.
.	.	.	.	.	.	8dd\J	.
=212	=212	=212	=212	=212	=212	=212	=212
1AA/)	.	(>2e\	.	(>1g/ [<1A/	.	8cc#\L	.
.	.	.	.	.	.	8b\	.
.	.	.	.	.	.	8a\	.
.	.	.	.	.	.	8g#X\J	.
.	.	2c#\)	.	.	.	8b/L	.
.	.	.	.	.	.	8a/	.
.	.	.	.	.	.	8gn/	.
.	.	.	.	.	.	8e/J)	.
=213	=213	=213	=213	=213	=213	=213	=213
!LO:TX:t=P:problem=mixed beam	!	!	!	!	!	!	!
!	!	!	!	!LO:S:s=1:note:problem=note-level slur	!	!	!
8D\L	.	4d\	.	4f#/) 4A/]	.	4d/	.
8DD/	.	.	.	.	.	.	.
8FF#/	.	4r	.	4r	.	4r	.
8AA/J	.	.	.	.	.	.	.
4D\	.	2r	.	8r	.	2r	.
.	.	.	.	8d/L	p	.	.
4r	.	.	.	8f#/	.	.	.
.	.	.	.	8a/J	.	.	.
=214	=214	=214	=214	=214	=214	=214	=214
2r	.	2r	.	2.dd\	.	4r	.
!	!	!	!	!	!	!	!LO:MO:null:mod=!LO&colon;DY&colon;ed=brack
!	!	!	!	!	!	!	!LO:MO:null:mod=p
.	.	.	.	.	.	(>4ff#\	.
!	!	!	!LO:MO:null:mod=!LO&colon;DY&colon;ed=brack	!	!	!	!
!	!	!	!LO:MO:null:mod=p	!	!	!	!
4F#'>\	p	[>2f#\	.	.	.	2ee\	.
8G#X'>\L	.	.	.	[>4cc#\	.	.	.
8A'>\J	.	.	.	.	.	.	.
=215	=215	=215	=215	=215	=215	=215	=215
!	!	!	!	!	!	!LO:TX:b:Bi:t=cres_:problem=dynamics with extention lines:mod=	!
!	!	!	!	!	!	!	!LO:HP:b:Bi:t=cres:ext=ud
!	!	!	!	!LO:TX:b:Bi:t=cres_:problem=dynamics with extention lines:mod=	!	!	!
!	!	!	!	!	!LO:HP:b:Bi:t=cres:ext=ud	!	!
!LO:TX:b:Bi:t=cres_:problem=dynamics with extention lines:mod=	!	!	!	!	!	!	!
!	!LO:HP:b:Bi:t=cres:ext=ud	!	!LO:MO:null:mod=<	!	!	!	!
4B'>\	<	2f#\]	.	4cc#\]	<	2dd\	<
4BB'</	.	.	.	2b\	.	.	.
4D'>\	.	[>2d\	.	.	.	2ccn\	.
8E'>\L	.	.	.	[>4a\	.	.	.
8F#'>\J	.	.	.	.	.	.	.
=216	=216	=216	=216	=216	=216	=216	=216
4G\	.	2d\]	.	4a\]	.	2b\	.
4GG/	.	.	.	2g/	.	.	.
4BB/	.	2B/	.	.	.	2a\)	.
8C#/L	.	.	.	4f#/	.	.	.
!	!	!	!LO:MO:null:mod=[	!	!	!	!
8D#X/J	[	.	.	.	[	.	[
!!LO:LB:g=original
=217	=217	=217	=217	=217	=217	=217	=217
!	!LO:MO:null:mod=!LO&colon;DY&colon;ed=brack	!	!	!	!	!	!
!	!LO:MO:null:mod=f	!	!	!	!	!	!
4E'>\	.	4B'</	f	4e/	f	4g/	f
4F#'>\	.	4B'</	.	4r	.	4d#X'</	.
4G'>\	.	4B'</	.	4r	.	4e'</	.
4G#X'>\	sf	4d\	sf	4e#X/	sf	4b\	sf
=218	=218	=218	=218	=218	=218	=218	=218
[>1A\	f	1d\	f	[>1f#/	f	4a\	f
.	.	.	.	.	.	8a\L	.
.	.	.	.	.	.	8dd\J	.
.	.	.	.	.	.	8ff#\L	.
.	.	.	.	.	.	8aa\	.
.	.	.	.	.	.	8ddd\	.
.	.	.	.	.	.	8fff#\J	.
=219	=219	=219	=219	=219	=219	=219	=219
4A\]	.	4d\	.	4f#/]	.	2aaa\	.
4AA/	.	(>4d\	.	4f#/ 4A/	.	.	.
4AA/	.	4e\	.	4g/ 4A/	.	2ccc#t>\	.
4AA/	.	4e\	.	4g/ 4A/	.	.	.
.	.	.	.	.	.	16qqbb/LL	.
.	.	.	.	.	.	16qqccc#/JJ	.
=220	=220	=220	=220	=220	=220	=220	=220
!	!LO:MO:null:mod=!LO&colon;DY&colon;ed=brack	!	!	!	!	!	!
!	!LO:MO:null:mod=ff	!	!	!	!	!	!
[>1D\	.	4d\	.	4f#/ 4A/	.	(>2ddd\	ff
!	!	!LO:SIC:v:s=4d	!LO:DY:b:rj	!	!	!	!
.	.	4e\	ff	(>4dd\	ff	.	.
.	.	4f#\	.	4ee\	.	4ccc#\	.
.	.	4a\)	.	4ff#\	.	4cccn\	.
=221	=221	=221	=221	=221	=221	=221	=221
1D\_>	.	(>2.d\	.	2gg\	.	4bb\	.
.	.	.	.	.	.	4bb-X\	.
.	.	.	.	4ff#\	.	4aa\	.
.	.	4e\	.	4cc#\)	.	4gg\	.
=222	=222	=222	=222	=222	=222	=222	=222
(>4D/]	.	4d\)	.	(>2dd\	.	(>2ff#\)	.
4Cn/	.	4rA	.	.	.	.	.
!	!LO:MO:null:mod=>	!	!	!	!	!	!
2BB/	.	2f#\	>	2dd#X\	>	4bb\	>
.	.	.	.	.	.	4aa\	.
=223	=223	=223	=223	=223	=223	=223	=223
4E\	.	1g\	.	4ee\	.	4gg\	.
2G\	.	.	.	&(>4b\	.	2ee\	.
.	.	.	.	4b-X\	.	.	.
4A\)	.	.	.	4a\&)	.	4cc#\)	.
=224	=224	=224	=224	=224	=224	=224	=224
!	!LO:MO:null:mod=!LO&colon;DY&colon;ed=brack	!	!	!	!	!	!
!	!LO:MO:null:mod=p	!	!	!	!	!	!
(>2D/	.	2f#\	p	2.a/)	p	(>2dd\	p
4C#X/	.	4e\	.	.	.	4ee\	.
4BB/	.	4d\	.	(<4g/	.	4ee#X\	.
=225	=225	=225	=225	=225	=225	=225	=225
2AA#X/	.	2c#\	.	1f#/	.	4ff#\	.
.	.	.	.	.	.	4een\	.
4BB/	.	[>2B\	.	.	.	2dd#X\)	.
4AAn/)	.	.	.	.	.	.	.
=226	=226	=226	=226	=226	=226	=226	=226
1GG/	.	2B\]	.	4e/	.	(>[>1ee\	.
.	.	.	.	4g/	.	.	.
.	.	2g\	.	4b/	.	.	.
.	.	.	.	4b-X/)	.	.	.
=227	=227	=227	=227	=227	=227	=227	=227
1AA/	.	2f#\	.	(<2.a/	.	4ee\]	.
.	.	.	.	.	.	4dd\	.
.	.	2e\	.	.	.	2cc#t>\	.
.	.	.	.	4g/	.	.	.
.	.	.	.	.	.	16qqb/LL	.
.	.	.	.	.	.	16qqcc#/JJ	.
=228	=228	=228	=228	=228	=228	=228	=228
!	!	!LO:TX:t=P:problem=mixed beam	!	!	!	!	!
(>2D\	.	8d\L	.	4f#/)	.	4dd\)	.
.	.	8D/	.	.	.	.	.
.	.	8F#/	.	4r	.	4r	.
.	.	8A/J	.	.	.	.	.
4AA/	.	[>2d\	.	8r	.	2r	.
.	.	.	.	8d/L	.	.	.
4FF#/	.	.	.	8f#/	.	.	.
.	.	.	.	8a/J	.	.	.
=229	=229	=229	=229	=229	=229	=229	=229
!	!	!LO:TX:b:Bi:t=poco cres_ al_:problem=dynamics with extention lines:mod=	!	!LO:TX:b:Bi:t=poco cres_ al_:problem=dynamics with extention lines:mod=	!	!	!
!	!LO:MO:null:mod=<	!	!LO:HP:b:Bi:t=poco cres al:ext=ud	!	!LO:HP:b:Bi:t=poco cres al:ext=ud	!	!
[<2DD/)	.	1d\_>	<	[>1dd\	<	8r	.
!	!	!	!	!	!	!LO:TX:b:Bi:t=poco cres_ al_:problem=dynamics with extention lines:mod=	!
!	!	!	!	!	!	!	!LO:HP:b:Bi:t=poco cres al:ext=ud
.	.	.	.	.	.	8f#\L	<
.	.	.	.	.	.	8a\	.
.	.	.	.	.	.	8dd\J	.
8DD/L]	.	.	.	.	.	[>2ff#\	.
8DD/	.	.	.	.	.	.	.
8FF#/	.	.	.	.	.	.	.
8AA/J	.	.	.	.	.	.	.
!!LO:LB:g=original
=230	=230	=230	=230	=230	=230	=230	=230
!	!	!LO:TX:t=P:problem=mixed beam	!	!	!	!	!
(>2D\	.	8d\L]	.	2dd\_>	.	4ff#\]	.
.	.	8F#/	.	.	.	.	.
.	.	8A/	.	.	.	4r	.
.	.	8d/J	.	.	.	.	.
!	!	!	!	!LO:TX:t=P:problem=mixed beam	!	!	!
4AA/	.	[>2f#\	.	8dd\L]	.	2r	.
.	.	.	.	8d/	.	.	.
4FF#/)	.	.	.	8f#/	.	.	.
.	.	.	.	8a/J	.	.	.
=231	=231	=231	=231	=231	=231	=231	=231
[<2DD/	.	1f#\_>	.	[>1dd\	.	8r	.
.	.	.	.	.	.	8a\L	.
.	.	.	.	.	.	8dd\	.
.	.	.	.	.	.	8ff#\J	.
8DD/L]	.	.	.	.	.	[>2aa\	.
8DD/	.	.	.	.	.	.	.
8FF#/	.	.	.	.	.	.	.
8AA/J	.	.	.	.	.	.	.
=232	=232	=232	=232	=232	=232	=232	=232
(>2D\	.	8f#\L]	.	2dd\_>	.	4aa\]	.
.	.	8A\	.	.	.	.	.
.	.	8d\	.	.	.	4r	.
.	.	8f#\J	.	.	.	.	.
4AA/	.	[2a\	.	8dd/L]	.	2r	.
.	.	.	.	8f#/	.	.	.
4FF#/)	.	.	.	8a/	.	.	.
.	.	.	.	8dd/J	.	.	.
=233	=233	=233	=233	=233	=233	=233	=233
[<2DD/	.	1a\_	.	[>1ff#\	.	8r	.
.	.	.	.	.	.	8dd\L	.
.	.	.	.	.	.	8ff#\	.
.	.	.	.	.	.	8aa\J	.
8DD/L]	.	.	.	.	.	[>2ddd\	.
8DD/	.	.	.	.	.	.	.
8FF#/	.	.	.	.	.	.	.
!	!LO:MO:null:mod=[[	!	!	!	!	!	!
8AA/J	.	.	[[	.	[[	.	[[
=234||	=234||	=234||	=234||	=234||	=234||	=234||	=234||
*>D	*	*>D	*	*>D	*	*>D	*
!!!OMD:
!!!OMD-mod: Più presto
!	!LO:MO:null:mod=!LO&colon;DY&colon;ed=brack	!	!	!	!	!	!
!	!LO:MO:null:mod=f	!LO:TX:b:Bi:t=più presto:mod=	!	!	!LO:MO:mod=ff	!LO:TX:b:Bi:t=più presto:mod=	!
!!LO:TX:t=con fuoco
2D\	.	2a\]	ff	2ff#\]	f	2ddd\]	ff
!LO:TX:b:Bi:t=con fuoco:mod=	!	!	!	!	!	!LO:TX:b:Bi:t=con fuoco:mod=	!
4c#'>\	.	4cc#'>\	.	4cc#'>\	.	4ccc#'>\	.
4B'>\	.	4b'>\	.	4b'>\	.	4bb'>\	.
=235	=235	=235	=235	=235	=235	=235	=235
2A'>\	.	2a'>\	.	2a/	.	2aa\	.
4G#X'>\	.	4g#X'>\	.	4g#X'</	.	4gg#X'>\	.
4Gn'>\	.	4gn'>\	.	4gn'</	.	4ggn'>\	.
=236	=236	=236	=236	=236	=236	=236	=236
4F#'>\	.	4f#'>\	.	4f#'</	.	4ff#\	.
4E'>\	.	4e'>\	.	4e'</	.	4ee'>\	.
4D'</	.	4d'>\	.	4d'</	.	4dd'>\	.
4Cn'</	.	4a'>\	.	4f#'</	.	4dd/ 4d'</	.
=237	=237	=237	=237	=237	=237	=237	=237
4BB'</	.	4g'>\	.	4g\	.	4dd/ 4d'</	.
4BB-X'</	.	4d'>\	.	4g#X\	.	4dd/ 4d'</	.
4AA'</	.	4d'>\	.	4a\	.	4dd'<\	.
4GG#X'</	.	4d'>\	.	4ee#X\	.	4bb'>\	.
=238	=238	=238	=238	=238	=238	=238	=238
4AA/	.	4d\	.	4ff#\	.	4aa'>\	.
4r	.	4r	.	4r	.	8aa\L	.
.	.	.	.	.	.	8ff#\J	.
2r	.	2r	.	2r	.	8dd/L	.
.	.	.	.	.	.	8a/	.
.	.	.	.	.	.	8f#/	.
.	.	.	.	.	.	8d/J	.
=239	=239	=239	=239	=239	=239	=239	=239
!	!	!	!	!	!	!LO:MO:mod=!null:null	!
!	!	!	!	!	!	!LO:N:vis=4.	!
2r	.	2r	.	2r	.	4A/	.
.	.	.	.	.	.	4r	.
4AA/	sf	4e/ 4A/	sf	4cc#/ 4A/	sf	4aa\ 4cc#\ 4e\ 4A\	sf
4r	.	4r	.	4r	.	4r	.
=240	=240	=240	=240	=240	=240	=240	=240
!	!LO:MO:null:mod=!LO&colon;DY&colon;ed=brack	!	!	!	!	!	!
!	!LO:MO:null:mod=fz >]]	!	!	!	!	!	!
(>1DD/	.	(>1F#/	fz >]]	(>1A/	fz >]]	[<1d/	fz >]]
=241	=241	=241	=241	=241	=241	=241	=241
!	!LO:MO:null:mod=!LO&colon;DY&colon;ed=brack	!	!	!	!	!	!
!	!LO:MO:null:mod=p	!	!	!	!	!	!
2GG/	.	1G/	p	1B-X/	p	1d/_<	p
2BB-X/)	.	.	.	.	.	.	.
!!LO:LB:g=original
=242	=242	=242	=242	=242	=242	=242	=242
!!LO:TX:t=riten.
!	!	!LO:TX:b:Bi:t=riten&colon;:mod=	!	!LO:TX:b:Bi:t=riten&colon;:mod=	!	!LO:TX:b:Bi:t=riten&colon;:mod=	!
!	!	!	!	!	!	!LO:TX:a:t=P:problem=w źródle ligature po zmianie systemu obraca się	!
(>1D\	.	1F#/	.	1A/	.	1d/_<	.
=243	=243	=243	=243	=243	=243	=243	=243
2BB-X/	.	1G/)	.	1B-X/)	.	1d/]	.
2GG/)	.	.	.	.	.	.	.
=244	=244	=244	=244	=244	=244	=244	=244
!	!	!	!	!	!	!LO:TX:a:Bi:t=Fine:problem=dotyczy wszystkich głosów:mod=	!
!	!	!	!	!	!LO:MO:null:mod=< [	!LO:TX:a:t=P:problem=w źródle ozdobna kreska taktowa wspólna dla wszystkich głosów	!
1DD/;>	<[ >]	1F#/;>	<[ >]	1A/;>	.	1d/;>	<[ >]
==	==	==	==	==	==	==	==
*-	*-	*-	*-	*-	*-	*-	*-
!!!system-decoration: [(*)]
!!!RDF**kern: > = above
!!!RDF**kern: < = below
!!!RDF**kern: N = linked
!!LO:MO:ori
!!!RDF**dynam: < = "cres", fontstyle= "bold-italic"
!!!RDF**dynam: > = "dim", fontstyle= "bold-italic"
!!!RDF**kern: i = editorial accidental
!!LO:MO:end
!!!filter-modern: sic -s | shed -e "s/yy//" | shed -ke "s/\(y(?!y)/(/" | shed -e "s/TX(.*):t=P:/tx$1:t=P:/LG" | shed -e "s/^(X?)rep$/$1REP/I" | shed -e "s/^(\d+[\/\\]right)/$1yy/I; s/^(\d+[\/\\]left)/$1yy/I" | shed -e "s/:rj/:RJ/L" | shed -e "s/LO:DY:(a|b|rj)/LO:dy:$1/L" | shed -e "s/LO:HP:(a|b|t)/LO:hp:$1/L" | shed -k -e "s/[<>]//g" | modori -m | autostem -r | tie -s
!!!EED: Wojciech Jakubiak-Danek
!!!EEV: 2021-04-11
!!!ENC: Krzysztof Stępień
!!!END: 2021-04-06
!!!ENC-modern: Andrzej Borzym
!!!END-modern: 2022-07-06
!!!YEC: Copyright 2022 Narodowy Instytut Fryderyka Chopina (https://polishscores.org)
!!!YEM: License CC-BY-4.0 (https://creativecommons.org/licenses/by/4.0)
